!!!!SEGMENT: pl-wtm--r-1432--004_stefani-jozef--quartetto-finale.krn
!!!cenid: 18xx:2452
!!!COM: Stefani, Józef
!!!COM-rismid: pe30024097
!!!CDT: 1800/04/16-1876/03/19
!!!CNT: Polish
!!!OPR: Quartetto
!!!OTL: Finale
!!!OMV: 004
!!!PDT: 1825
!!!AGN: Secular; String quartet
!!!SMS-siglum: PL-Wtm
!!!SMS-shelfmark: R 1432
!!!SMS-shelfwork: 001-004 M
!!!SMS-variant:
!!!SMS-altvar:
!!!NIFC-rismid: 1001116254
!!!URL-scan: http://repozytorium.nifc.pl/skany/pl-wtm-nut--r1432
!!!ONB-nifc: UWAGA: części Kwartetu: 1. Allegro moderato, 2. Adagio, 3. Menuetto, 4. Finale
!!!OMD: Allegro con brio
**kern	**dynam	**kern	**dynam	**kern	**dynam	**kern	**dynam
*part4	*part4	*part3	*part3	*part2	*part2	*part1	*part1
*staff4	*	*staff3	*	*staff2	*	*staff1	*
*Iempty	*	*Ialto	*	*Ivioln	*	*Ivioln	*
*I"Viol:	*	*I"Alto	*	*I"V: 2	*	*I"V. 1.	*
*>[A,A1,A,A2,B,C,C,D]	*>[A,A1,A,A2,B,C,C,D]	*>[A,A1,A,A2,B,C,C,D]	*>[A,A1,A,A2,B,C,C,D]	*>[A,A1,A,A2,B,C,C,D]	*>[A,A1,A,A2,B,C,C,D]	*>[A,A1,A,A2,B,C,C,D]	*>[A,A1,A,A2,B,C,C,D]
*>A	*>A	*>A	*>A	*>A	*>A	*>A	*>A
*clefF4	*	*clefC3	*	*clefG2	*	*clefG2	*
*k[b-e-a-]	*	*k[b-e-a-]	*	*k[b-e-a-]	*	*k[b-e-a-]	*
*E-:	*	*E-:	*	*E-:	*	*E-:	*
*M2/4	*	*M2/4	*	*M2/4	*	*M2/4	*
*all\right	*	*all\right	*	*all\right	*	*all\right	*
=1	=1	=1	=1	=1	=1	=1	=1
!	!LO:DY:rj	!	!LO:DY:rj	!	!LO:DY:rj	!	!LO:DY:rj
4E-\	f	4e-\	f	4ee- 4g 4B-/	f	4gg| 4b- 4e-\	ff
4BB-/	.	4B-\	.	4dd 4f 4B-/	.	4ff| 4b- 4d\	.
=2	=2	=2	=2	=2	=2	=2	=2
!LO:TX:t=P:problem:mixed beam	!	!LO:TX:t=P:problem:mixed beam	!	!	!	!	!
8EE-'/L	.	8E-'>/L	.	8ee-L 8g'/	.	8ee-L 8g 8B-'\	.
8E-'\J	.	8e-'\J	.	8ee-J 8g'/	.	8ee-J 8g 8B-'\	.
4r	.	8r	.	8r	p	4r	.
.	.	16e-\LL	p	16g/LL	.	.	.
.	.	16f\JJ	.	16a-/JJ	.	.	.
=3	=3	=3	=3	=3	=3	=3	=3
2r	.	16g\LL	.	16b-\LL	.	2r	.
.	.	16a-\	.	16cc\	.	.	.
.	.	16g\	.	16b-\	.	.	.
.	.	16a-\JJ	.	16cc\JJ	.	.	.
.	.	16g\LL	.	16b-\LL	.	.	.
.	.	16f\	.	16a-\	.	.	.
.	.	16e-\	.	16g\	.	.	.
.	.	16f\JJ	.	16a-\JJ	.	.	.
=4	=4	=4	=4	=4	=4	=4	=4
2r	.	8g\L	.	8b-'\L	.	2r	.
.	.	8g\J	.	8b-'\J	.	.	.
.	.	4r	.	4r	.	.	.
=5	=5	=5	=5	=5	=5	=5	=5
!	!	!	!LO:DY:rj	!	!LO:DY:rj	!	!LO:DY:rj
4BB-/	.	4B-/	f	4dd 4f 4B-/	f	4aa-| 4b- 4d\	f
4E-\	.	4B-/	.	4ee- 4g 4B-/	.	4gg| 4b- 4e-\	.
=6	=6	=6	=6	=6	=6	=6	=6
!LO:TX:t=P:problem:mixed beam	!	!	!	!	!	!	!
8B-'\L	.	8B-'>/L	.	8ddL 8f'/	.	8ffL 8b- 8d'\	.
8BB-'/J	.	8B-'>/J	.	8ddJ 8f'/	.	8ffJ 8b- 8d'\	.
4r	.	8r	.	8r	.	4r	.
.	.	16d\LL	p	16f/LL	p	.	.
.	.	16e-\JJ	.	16g/JJ	.	.	.
=7	=7	=7	=7	=7	=7	=7	=7
2r	.	16f\LL	.	16a-/LL	.	2r	.
.	.	16g\	.	16b-/	.	.	.
.	.	16f\	.	16a-/	.	.	.
.	.	16g\JJ	.	16b-/JJ	.	.	.
.	.	16f\LL	.	16a-/LL	.	.	.
.	.	16e-\	.	16g/	.	.	.
.	.	16d\	.	16f/	.	.	.
.	.	16e-\JJ	.	16g/JJ	.	.	.
=8	=8	=8	=8	=8	=8	=8	=8
2r	.	8f'\L	.	8a-/L	.	2r	.
.	.	8f'\J	.	8a-/J	.	.	.
.	.	4r	.	4r	.	.	.
!!LO:LB:g=original
=9	=9	=9	=9	=9	=9	=9	=9
4e-\	.	2r	.	2r	.	4gg'\	.
4c\	.	.	.	.	.	4ee-'\	.
=10	=10	=10	=10	=10	=10	=10	=10
8An\L	.	8r	.	8r	.	8cc\L	.
8A\J	.	16f\LL	.	16an\LL	<	8cc\J	.
.	.	16g\JJ	.	16b-\JJ	.	.	.
4r	.	16an\LL	.	16cc\LL	.	4r	.
.	.	16b-\	.	16dd\	.	.	.
.	.	16cc\	.	16ee-\	.	.	.
.	.	16dd\JJ	.	16ff\JJ	.	.	.
=11	=11	=11	=11	=11	=11	=11	=11
4r	.	8ee-\L	.	8gg\L	.	4r	.
.	.	.	.	.	[	.	.
.	.	8ee-\	.	8gg\	.	.	.
8F\L	.	8cc\	.	8aan\	.	8ee-\L	.
8F\J	.	8cc\J	.	8aa\J	.	8ee-\J	.
=12	=12	=12	=12	=12	=12	=12	=12
8G\L	.	8b-\L	.	8bb-'\L	.	8dd'\L	.
8G\J	.	8b-\J	.	8bb-'\J	.	8dd'\J	.
4r	.	4r	.	4r	.	4r	.
=13	=13	=13	=13	=13	=13	=13	=13
!	!	!	!	!	!LO:HP:a	!	!
[2C/	.	[2B-/	.	[2en [2G/	>	4bb-'\	.
.	.	.	.	.	.	4gg'\	.
=14	=14	=14	=14	=14	=14	=14	=14
2C/]	.	2B-/]	.	2enX] 2G/]	.	4een'\	.
.	.	.	.	.	]]	4ccn'\	.
=15	=15	=15	=15	=15	=15	=15	=15
8F\L	.	8An/L	.	8fL 8An/	.	8aan'\L	.
8F\J	.	8c/J	.	8fJ 8A/	.	8aa'\J	.
(16F\LL	.	4r	.	4r	.	4r	.
16En\	.	.	.	.	.	.	.
16F\	.	.	.	.	.	.	.
16E\JJ)	.	.	.	.	.	.	.
=16	=16	=16	=16	=16	=16	=16	=16
16F\LL	.	2r	.	2r	.	2r	.
16G\	.	.	.	.	.	.	.
16An\	.	.	.	.	.	.	.
16B-\JJ	.	.	.	.	.	.	.
16c\LL	.	.	.	.	.	.	.
16d\	.	.	.	.	.	.	.
16en\	.	.	.	.	.	.	.
16f\JJ	.	.	.	.	.	.	.
=17	=17	=17	=17	=17	=17	=17	=17
*2\right	*	*2\right	*	*	*	*	*
2G\	.	(2f\	.	[2bn [2d/	>	4fff\	.
.	.	.	.	.	.	4ddd\	.
=18	=18	=18	=18	=18	=18	=18	=18
2GG/	.	2d\)	.	2bnX] 2d/]	]	4bbn\	.
.	.	.	.	.	.	4gg\	.
!!LO:LB:g=original
=19	=19	=19	=19	=19	=19	=19	=19
8C/L	.	8c\L	.	8ccL 8en/	.	8een\L	.
8C/J	.	8c\J	.	8ccJ 8e/	.	8ee\J	.
16C/LL	.	4r	.	4r	.	4r	.
16BBn/	.	.	.	.	.	.	.
16C/	.	.	.	.	.	.	.
16BB/JJ	.	.	.	.	.	.	.
=20	=20	=20	=20	=20	=20	=20	=20
16C\LL	.	2r	.	2r	.	2r	.
16D\	.	.	.	.	.	.	.
16En\	.	.	.	.	.	.	.
16F\JJ	.	.	.	.	.	.	.
16G\LL	.	.	.	.	.	.	.
16An\	.	.	.	.	.	.	.
16Bn\	.	.	.	.	.	.	.
16c\JJ	.	.	.	.	.	.	.
=21	=21	=21	=21	=21	=21	=21	=21
!	!	!	!	!	!	!	!LO:DY:rj
16CKL 16CC/	.	16Bn/KL	.	16ddKL 16f/	.	4aa-X\	ff
8C 8CC/	.	8B/	.	8dd 8f/	.	.	.
8C 8CC/	.	8B/	.	8dd 8f/	.	.	.
.	.	.	.	.	.	4ff\	.
8C 8CC/	.	8B/	.	8dd 8f/	.	.	.
[16CJk [16CC/	.	(16B/Jk	.	16ddJk [16f/	.	.	.
=22	=22	=22	=22	=22	=22	=22	=22
!	!	!LO:TX:t=P:problem:mixed beam	!	!	!	!	!
16C]KL 16CC/]	.	16A-X/KL)	.	16ddKL 16f/]	.	4dd\	.
8C 8CC/	.	8a-X\	.	8dd 8f/	.	.	.
8C 8CC/	.	8a-\	.	8dd 8f/	.	.	.
.	.	.	.	.	.	4bn\	.
8C 8CC/	.	8a-\	.	8dd 8f/	.	.	.
16CJk 16CC/	.	16a-\Jk	.	16ddJk 16f/	.	.	.
=23	=23	=23	=23	=23	=23	=23	=23
4C 4CC/	.	4g\	.	4cc 4en/	.	4cc\	.
4G\	.	4r	.	4r	.	(16cc\LL	.
.	.	.	.	.	.	16bn\	.
.	.	.	.	.	.	16cc\	.
.	.	.	.	.	.	16b\JJ)	.
=24	=24	=24	=24	=24	=24	=24	=24
4En\	.	2r	.	2r	.	16cc\LL	<
.	.	.	.	.	.	16dd\	.
.	.	.	.	.	.	16een\	.
.	.	.	.	.	.	16ff\JJ	.
4C\	.	.	.	.	.	16gg\LL	.
.	.	.	.	.	.	16aan\	.
.	.	.	.	.	.	16bbn\	.
.	.	.	.	.	.	16ccc\JJ	[[
=25	=25	=25	=25	=25	=25	=25	=25
!	!LO:DY:rj	!	!	!	!	!	!
16CKL 16CC/	ff	16bn\KL	.	4aa-X\	>	(16dddKL 16ff\	ff
8C 8CC/	.	8b\	.	.	.	8ddd 8ff\	.
8C 8CC/	.	8b\	.	.	.	8ddd 8ff\	.
.	.	.	.	4ff\	.	.	.
8C 8CC/	.	8b\	.	.	.	8ddd 8ff\	.
[16CJk [16CC/	.	16b\Jk	.	.	]]	16dddJk 16ff\	.
=26	=26	=26	=26	=26	=26	=26	=26
16C]KL 16CC/]	.	16bn\KL	.	4dd\	.	16dddKL 16ff\	.
8C 8CC/	.	8a-X\	.	.	.	8ddd 8ff\	.
8C 8CC/	.	8a-\	.	.	.	8ddd 8ff\	.
.	.	.	.	4bn\	.	.	.
8C 8CC/	.	8a-\	.	.	.	8ddd 8ff\	.
16CJk 16CC/	.	16a-\Jk	.	.	.	16dddJk 16ff\)	.
=27	=27	=27	=27	=27	=27	=27	=27
4C 4CC/	.	4g\	.	4cc\	.	4ccc 4een\	.
!	!LO:DY:a:rj	!	!	!	!	!	!
(16C/LL	p	4r	.	4r	.	4r	.
16BBn/	.	.	.	.	.	.	.
16C/	.	.	.	.	.	.	.
16BB/JJ	.	.	.	.	.	.	.
!!LO:PB:g=original
=28	=28	=28	=28	=28	=28	=28	=28
16C/KL)	.	2r	.	2r	.	2r	.
8C/	.	.	.	.	.	.	.
8C/	.	.	.	.	.	.	.
8C/	.	.	.	.	.	.	.
[16C/Jk	.	.	.	.	.	.	.
=29	=29	=29	=29	=29	=29	=29	=29
!	!	!	!	!	!	!	!LO:DY:rj
16C/KL]	.	16f\KL	.	16a-X/KL	.	4dd-X\	p
8C/	.	8f\	.	8a-/	.	.	.
8C/	.	8f\	.	8a-/	.	.	.
.	.	.	.	.	.	16dd-\LL	.
8C/	.	8f\	.	8a-/	.	16cc\	.
.	.	.	.	.	.	16dd-\	.
16C/Jk	.	[16f\Jk	.	[16a-/Jk	.	16cc\JJ	.
=30	=30	=30	=30	=30	=30	=30	=30
4BB-/	.	16f\KL]	.	16a-/KL]	.	(16dd-X\KL	.
.	.	8f\	.	8a-/	.	8dd-\	.
.	.	8f\	.	8a-/	.	8dd-\	.
(16BB-/LL	.	.	.	.	.	.	.
16AAn/	.	8f\	.	8a-/	.	8dd-\	.
16BB-/	.	.	.	.	.	.	.
16AA/JJ	.	16f\Jk	.	16a-/Jk	.	16dd-\Jk)	.
=31	=31	=31	=31	=31	=31	=31	=31
16BB-/KL)	.	16e-\KL	.	16g/KL	.	4cc\	.
8BB-/	.	8e-\	.	8g/	.	.	.
8BB-/	.	8e-\	.	8g/	.	.	.
.	.	.	.	.	.	16cc\LL	.
8BB-/	.	8e-\	.	8g/	.	16bn\	.
.	.	.	.	.	.	16cc\	.
16BB-/Jk	.	[16e-\Jk	.	[16g/Jk	.	16b\JJ	.
=32	=32	=32	=32	=32	=32	=32	=32
*	*	*rep	*	*rep	*	*	*
4AA-X/	.	16e-\KL]	.	16g/KL]	.	16cc\KL	.
.	.	8e-\	.	8g/	.	8cc\	.
.	.	8e-\	.	8g/	.	8cc\	.
16AA-/LL	.	.	.	.	.	.	.
16GG/	.	8e-\	.	8g/	.	8cc\	.
16AA-/	.	.	.	.	.	.	.
(16GG/JJ	.	16e-\Jk	.	16g/Jk	.	16cc\Jk	.
*	*	*Xrep	*	*Xrep	*	*	*
=33	=33	=33	=33	=33	=33	=33	=33
16AA-/KL)	.	16d-X\KL	.	16f/KL	.	4b-X/	.
8AA-/	.	8d-\	.	8f/	.	.	.
8AA-/	.	8d-\	.	8f/	.	.	.
.	.	.	.	.	.	16b-/LL	.
8AA-/	.	8d-\	.	8f/	.	16an/	.
.	.	.	.	.	.	16b-/	.
16AA-/Jk	.	[16d-\Jk	.	[16f/Jk	.	16a/JJ	.
=34	=34	=34	=34	=34	=34	=34	=34
*	*	*	*	*rep	*	*	*
4GG/	.	16d-X\KL]	.	16f/KL]	.	16b-/KL	.
.	.	8d-\	.	8f/	.	8b-/	.
.	.	8d-\	.	8f/	.	8b-/	.
(16GG/LL	.	.	.	.	.	.	.
16FF#X/	.	8d-\	.	8f/	.	8b-/	.
16GG/	.	.	.	.	.	.	.
16FF#/JJ	.	16d-\Jk	.	16f/Jk	.	[>16b-/Jk	.
*	*	*	*	*Xrep	*	*	*
=35	=35	=35	=35	=35	=35	=35	=35
16GG/KL)	.	16c\KL	.	16en/KL	.	16b-\KL]	.
8CC/	.	8g\	.	8b-/	.	8een\	.
8CC/	.	8g\	.	8b-/	.	16ee\Jk	.
.	.	.	.	.	.	(16ee\LL	.
8CC/	.	8g\	.	8b-/	.	16dd#X\)	.
.	.	.	.	.	.	16ee'\	.
16CC/Jk	.	16g\Jk	.	16b-/Jk	.	16ee'\JJ	.
=36	=36	=36	=36	=36	=36	=36	=36
16DD-X/KL	.	16f\KL	.	16a-X/KL	.	4ff\	.
8DD-/	.	8f\	.	8a-/	.	.	.
8DD-/	.	8f\	.	8a-/	.	.	.
.	.	.	.	.	.	16ff\LL	.
8DD-/	.	8f\	.	8a-/	.	16een\	.
.	.	.	.	.	.	16ff\	.
16DD-/Jk	.	16f\Jk	.	16a-/Jk	.	16ee\JJ	.
!!LO:LB:g=original
=37	=37	=37	=37	=37	=37	=37	=37
8DD-X/L	.	16f\KL	.	16a-X/KL	.	8ff\L	.
.	.	8f\	.	8an/	.	.	.
!	!LO:HP:a	!	!	!	!	!	!
(8D-X/	<	.	.	.	.	8ff\	<
.	.	8f\	.	8a/	.	.	.
8C/	.	.	.	.	.	8gg\	.
.	.	8e-\	.	8a/	.	.	.
8BBn/J	.	.	.	.	.	8aa-X\J	.
.	[[	16dn\Jk	.	16a/Jk	.	.	.
=38	=38	=38	=38	=38	=38	=38	=38
8C/L)	.	8c\L	fp	8f/L	fp	4aan\	[
8C/J	.	(8f\	.	(8an/	.	.	.
4r	.	8an\	.	8cc/	.	16ccc\LL	.
.	.	.	.	.	.	16bbn\	.
.	.	8f\J	.	8a/J	.	16ccc\	.
.	.	.	.	.	.	16bb\JJ	.
=39	=39	=39	=39	=39	=39	=39	=39
*	*	*tremolo	*	*tremolo	*	*	*
2r	.	8an\L	.	8cc/L	.	8ccc\L	.
.	.	8f\	.	8an/	.	8fff\J	.
!	!	!	!	!	!	!LO:TUP:a:problem:klamra łukowa, łuczek zamiast numeru	!
.	.	8a\	.	8cc/	.	12aan\L	<
.	.	.	.	.	.	12ddd\	.
.	.	8f\J)	.	8an/J)	.	.	[ >
.	.	.	.	.	.	12ccc\J	]]
*	*	*Xtremolo	*	*Xtremolo	*	*	*
=40	=40	=40	=40	=40	=40	=40	=40
(8CC'/L	.	8en\L|	.	8g/L|	.	4bb-X\	.
8CC'/J)	.	(8g\	.	(8b-/	.	.	.
4r	.	8e\	.	8cc/	.	16bb-\LL	.
.	.	.	.	.	.	16aan\	.
.	.	8g\J	.	8b-/J	.	16bb-\	.
.	.	.	.	.	.	16aa\JJ	.
=41	=41	=41	=41	=41	=41	=41	=41
*	*	*tremolo	*	*tremolo	*	*	*
!	!	!	!	!	!	!LO:TUP:a	!
2r	.	8en\L	.	8cc/L	.	12bb-\L	.
.	.	.	.	.	.	12gg\	.
.	.	8g\	.	8b-/	.	.	.
.	.	.	.	.	.	12een\J	.
!	!	!	!	!	!	!LO:TUP:a:problem:łuczek zamiast numeru	!
.	.	8e\	.	8cc/	.	12ddd\L	.
.	.	.	.	.	.	12ccc\	.
.	.	8g\J)	.	8b-/J)	.	.	.
.	.	.	.	.	.	12ee\J	.
*	*	*Xtremolo	*	*Xtremolo	*	*	*
=42	=42	=42	=42	=42	=42	=42	=42
8FF'/L	.	4f\	.	4an/	.	4ff\	.
8FF'/J	.	.	.	.	.	.	.
(16FF/LL	.	4cc\	.	4r	.	4r	.
16EEn/	.	.	.	.	.	.	.
16FF/	.	.	.	.	.	.	.
16EE/JJ	.	.	.	.	.	.	.
=43	=43	=43	=43	=43	=43	=43	=43
16FF/LL)	.	4an\	.	2r	.	2r	.
16GG/	.	.	.	.	.	.	.
16AAn/	.	.	.	.	.	.	.
16BB-/JJ	.	.	.	.	.	.	.
16C/LL	.	4f\	.	.	.	.	.
16D/	.	.	.	.	.	.	.
16En/	.	.	.	.	.	.	.
16F/JJ	.	.	.	.	.	.	.
=44	=44	=44	=44	=44	=44	=44	=44
!	!LO:DY:rj	!	!	!	!	!	!LO:DY:rj
16FF/KL	ff	16enKL 16d-X\	.	16b-KL 16g/	.	4ddd-X\	ff
8FF/	.	8e 8d-\	.	8b- 8g/	.	.	.
8FF/	.	8e 8d-\	.	8b- 8g/	.	.	.
.	.	.	.	.	.	4bb-\	.
8FF/	.	8e 8d-\	.	8b- 8g/	.	.	.
[16FF/Jk	.	16eJk 16d-\	.	16b-Jk [16g/	.	.	.
!!LO:LB:g=original
=45	=45	=45	=45	=45	=45	=45	=45
!	!	!	!	!LO:TX:t=P:problem:brak zakończenia ligatury	!	!	!
16FF/KL]	.	16enKL 16d-X\	.	16b-KL 16g/]	.	4gg\|	.
8FF/	.	8e 8d-\	.	8b- 8g/	.	.	.
8FF/	.	8e 8d-\	.	8b- 8g/	.	.	.
.	.	.	.	.	.	4een\|	.
8FF/	.	8e 8d-\	.	8b- 8g/	.	.	.
16FF/Jk	.	16eJk 16d-\	.	16b-Jk 16g/	.	.	.
=46	=46	=46	=46	=46	=46	=46	=46
4FF/	.	4f 4c\	.	4an 4f/	.	8ff\L	.
.	.	.	.	.	.	8ff\J	.
4C/	.	4r	.	4r	.	16ff\LL	.
.	.	.	.	.	.	16een\	<
.	.	.	.	.	.	16ff\	.
.	.	.	.	.	.	16ee\JJ	.
=47	=47	=47	=47	=47	=47	=47	=47
4AAn/	.	2r	.	2r	.	16ff\LL	.
.	.	.	.	.	.	16gg\	.
.	.	.	.	.	.	16aan\	.
.	.	.	.	.	.	16bb-\JJ	.
4FF/	.	.	.	.	.	16ccc\LL	.
.	.	.	.	.	.	16ddd\	.
.	.	.	.	.	.	16eeen\	.
.	.	.	.	.	.	16fff\JJ	[[
=48	=48	=48	=48	=48	=48	=48	=48
16FF/KL	.	16dd-XKL 16en\	.	4ddd-X\	.	16ggg\KL	ff
8FF/	.	8dd- 8e\	.	.	.	8ggg\	.
8FF/	.	8dd- 8e\	.	.	.	8ggg\	.
.	.	.	.	4bb-\	.	.	.
8FF/	.	8dd- 8e\	.	.	.	8ggg\	.
[16FF/Jk	.	[16dd-Jk [>16e\	.	.	.	[16ggg\Jk	.
=49	=49	=49	=49	=49	=49	=49	=49
16FF/KL]	.	16dd-]KL 16e\]	.	4gg\	.	16ggg\KL]	.
8FF/	.	8dd-X 8en\	.	.	.	8ggg\	.
8FF/	.	8dd- 8e\	.	.	.	8ggg\	.
.	.	.	.	4een\	.	.	.
8FF/	.	8dd- 8e\	.	.	.	8ggg\	.
16FF/Jk	.	16dd-Jk 16e\	.	.	.	16ggg\Jk	.
=50	=50	=50	=50	=50	=50	=50	=50
8FF/	.	8cc 8f\	.	8ff\	.	8fffL 8aan\	.
8r	.	8r	.	8r	.	8aa\J	.
!	!	!	!	!LO:S:s=1:note:problem:note-level slur	!	!	!
[4FF/	.	(4g\	.	(4en 4B-/	.	8cc\L	.
.	.	.	.	.	.	16dd\L	.
.	.	.	.	.	.	16een\JJ	.
=51	=51	=51	=51	=51	=51	=51	=51
8FF/]	.	8f\)	.	8f) 8An/	.	8ff\L	.
8r	.	8r	.	8cc\	.	8aan\J	.
!	!	!	!LO:HP:a	!	!	!	!
[4FF/	>	(4en\	>	8dd-X\L	.	8bb-\L	>
.	.	.	.	16cc\L	.	16aa\L	.
.	.	.	.	16b-\JJ	.	16gg\JJ	]]
=52	=52	=52	=52	=52	=52	=52	=52
8FF/]	]	8f\)	]	8an/	.	8ff\L	.
8r	.	8r	.	8r	.	8aan\J	.
[4FF/	.	(4g\	.	(4b-/	.	8cc\L	.
.	.	.	.	.	.	16dd\L	.
.	.	.	.	.	.	16een\JJ	.
=53	=53	=53	=53	=53	=53	=53	=53
8FF/]	.	8f\)	.	8an/)	.	8ff\L	.
8r	.	8r	.	8cc/	.	8aan\J	.
!	!	!	!LO:HP:a	!	!	!	!
[4FF/	>	4en\	>	8dd-X/L	.	8bb-\L	>
.	.	.	.	16cc/L	.	16aa\L	.
.	]]	.	]]	16b-/JJ	.	16gg\JJ	]]
!!LO:PB:g=original
=54	=54	=54	=54	=54	=54	=54	=54
!LO:TX:t=P:problem:brak zakończenia ligatury	!	!	!	!	!	!	!
8FF'/L]	.	8f\L	.	8an/L	.	8ff'\L	.
8FF'/J	.	8f\J	.	8a/J	.	8ff'\J	.
4r	.	4r	.	4r	.	4r	.
=55	=55	=55	=55	=55	=55	=55	=55
2r	.	2r	.	2r	.	4r	.
*	*	*	*	*	*	*8ba	*
!	!	!	!	!	!	!LO:TX:a:t=8va baſsa	!LO:DY:rj
.	.	.	.	.	.	16f\LL	p
.	.	.	.	.	.	16g\	.
.	.	.	.	.	.	16an\	.
.	.	.	.	.	.	16b-\JJ	.
=56	=56	=56	=56	=56	=56	=56	=56
4r	.	4r	.	4r	.	8cc'\L	.
.	.	.	.	.	.	8cc'\J	.
!	!LO:DY:rj	!LO:TX:t=P:problem:skreślone nuty w tt. nr 56-65	!LO:DY:rj	!LO:TX:t=P:problem:skreślone nuty w tt. nr 56-65	!LO:DY:rj	!	!
4F\	p	[4An 4F'/	p	4e- 4c/	p	4r	.
=57	=57	=57	=57	=57	=57	=57	=57
4FF/	.	4A] 4F'/	.	4e- 4c/	.	4r	.
4r	.	4r	.	4r	.	16an\LL	.
.	.	.	.	.	.	16b-\	.
.	.	.	.	.	.	16cc\	.
.	.	.	.	.	.	16dd\JJ	.
=58	=58	=58	=58	=58	=58	=58	=58
4r	.	4r	.	4r	.	8ee-X'\L	.
.	.	.	.	.	.	8ee-'\J	.
4F\	.	[4An 4F'/	.	4e- 4c/	.	4r	.
=59	=59	=59	=59	=59	=59	=59	=59
4FF/	.	4A] 4F'/	.	4e- 4c/	.	4r	.
4r	.	4r	.	4r	.	16cc\LL	.
.	.	.	.	.	.	16dd\	.
.	.	.	.	.	.	16ee-\	.
.	.	.	.	.	.	16ff\JJ	.
=60	=60	=60	=60	=60	=60	=60	=60
!LO:TX:b:t=ten	!	!	!	!LO:TX:b:t=ten	!	!	!
[2F\	.	[2An [>2F/	.	[2e- [2c/	.	8.gg\L	>
.	.	.	.	.	.	16ff\Jk	.
.	.	.	>	.	>	16ee-\LL	]
!	!	!	!	!	!	!	!LO:HP:t=cresc
.	.	.	.	.	.	16dd\	<
.	.	.	.	.	.	16cc\	.
.	.	.	.	.	.	16bn\JJ	.
=61	=61	=61	=61	=61	=61	=61	=61
2F\_	>	2A_ 2F/_>	.	2e-_ 2c/_	.	16cc\LL	.
.	.	.	.	.	.	16bn\	.
.	.	.	.	.	.	16dd\	.
.	.	.	.	.	.	16cc\JJ	.
.	.	.	]	.	]	16ee-\LL	.
.	.	.	.	.	.	16dd\	.
.	.	.	.	.	.	16cc\	.
.	]	.	.	.	.	16b-X\JJ	.
!!LO:LB:g=original
=62	=62	=62	=62	=62	=62	=62	=62
2F\_	.	2An_ 2F/_>	.	2e-_ 2c/_	.	16an\LL	.
.	.	.	.	.	.	16g\	.
.	.	.	.	.	.	16b-\	.
.	.	.	.	.	.	16a\JJ	.
.	.	.	.	.	.	16cc\LL	.
.	.	.	.	.	.	16b-\	.
.	.	.	.	.	.	16a\	.
.	.	.	.	.	.	16g\JJ	.
=63	=63	=63	=63	=63	=63	=63	=63
2F\_	.	2An_ 2F/_	.	2e-_ 2c/_	.	16f\LL	.
.	.	.	.	.	.	16en\	.
.	.	.	.	.	.	16g\	.
.	.	.	.	.	.	16f\JJ	.
.	.	.	.	.	.	16an\LL	.
.	.	.	.	.	.	16g\	.
.	.	.	.	.	.	16b-\	.
.	.	.	.	.	.	16a\JJ	.
=64	=64	=64	=64	=64	=64	=64	=64
2F\_	.	2An_ 2F/_	.	2e-_ 2c/_	.	16cc\LL	.
.	.	.	.	.	.	16bn\	.
!	!	!	!	!	!	!	!LO:HP:t=diminuendo
.	.	.	.	.	.	16dd\	>
.	.	.	.	.	.	16b\JJ	.
.	.	.	.	.	.	16cc\LL	.
.	.	.	.	.	.	16b\	.
.	.	.	.	.	.	16dd\	.
.	.	.	.	.	.	16b\JJ	.
=65	=65	=65	=65	=65	=65	=65	=65
.	.	.	.	.	.	8qqbn/	.
*	*	*	*	*	*	*2\right	*
4F\]	.	4An] 4F/]	.	4e-] 4c/]	.	2ccT\	.
4r	.	4r	.	4r	.	.	.
=66	=66	=66	=66	=66	=66	=66	=66
2r;	.	2r;	.	2r;	.	2cc#Xt\	<
.	.	.	.	.	.	16qqbn;/LL	.
.	.	.	.	.	.	16qqcc#/JJ	.
=67	=67	=67	=67	=67	=67	=67	=67
*	*	*^	*	*^	*	*	*
!	!	!LO:TX:a:t=Vo.	!	!	!LO:TX:a:t=Alto	!	!	!	!
(16BB-/LL	.	8r	8ryy	.	8r	8ryy	.	4dd\	[
16AAn/	.	.	.	.	.	.	.	.	.
!	!	!	!	!	!	!	!LO:DY:rj	!	!
16BB-/	.	(8f\L	8d\L	.	(8dd\L	8f\L	p	.	.
16AA/JJ	.	.	.	.	.	.	.	.	.
8BB-/)	.	8d\	8B-\	.	8b-\	8d\	.	16ee-\LL	>
.	.	.	.	.	.	.	.	16dd\	.
8r	.	8f\J)	8d\J	.	8dd\J)	8f\J	.	16cc\	.
.	.	.	.	.	.	.	.	16b-\JJ	]]
=68	=68	=68	=68	=68	=68	=68	=68	=68	=68
!LO:TX:t=P:problem:mixed beam	!	!	!	!	!	!	!	!	!
8F'\L	.	8r	8r	.	8r	8r	.	16cc\LL	.
.	.	.	.	.	.	.	.	16b-\	.
8FF'/J	.	(8e-\L	8c\L	.	(8cc\L	8e-\L	.	16an\	.
.	.	.	.	.	.	.	.	16g\JJ	.
4r	.	8c\	8An\	.	8an\	8c\	.	8f\L	.
.	.	8e-\J)	8c\J	.	8cc\J)	8e-\J	.	16g\L	.
.	.	.	.	.	.	.	.	16a\JJ	.
!!LO:LB:g=original
=69	=69	=69	=69	=69	=69	=69	=69	=69	=69
(16GG/LL	.	8r	8ryy	.	8r	8ryy	.	[4b-\	.
16FF#X/	.	.	.	.	.	.	.	.	.
16GG/	.	(8d\L	8B-\L	.	8b-/L	(8d\L	.	.	.
16FF#/JJ	.	.	.	.	.	.	.	.	.
8GG/)	.	8B-\	8d\	.	8g/	8B-\)	.	16b-\LL]	.
.	.	.	.	.	.	.	.	16cc\	.
8r	.	8d\J)	8B-\J	.	8b-/J	8g\J	.	16cc#X\	.
.	.	.	.	.	.	.	.	16dd\JJ	.
*	*	*v	*v	*	*	*	*	*	*
*	*	*	*	*v	*v	*	*	*
=70	=70	=70	=70	=70	=70	=70	=70
8D'/L	.	8r	.	8r	.	16dd\LL	.
.	.	.	.	.	.	16cc\	.
8DD'/J	.	(8c/L	.	(8an/L	.	16b-\	.
.	.	.	.	.	.	16an\JJ	.
4r	.	8An/	.	8f#X/	.	4a\	.
.	.	8c/J)	.	8a/J)	.	.	.
=71	=71	=71	=71	=71	=71	=71	=71
(16GG/LL	.	8r	.	8r	.	4b-\	<
16FF#X/	.	.	.	.	.	.	.
16GG/	.	(8B-/L	.	(8g/L	.	.	.
16FF#/JJ	.	.	.	.	.	.	.
8GG/)	.	8d/	.	8d/	.	16cc\LL	.
.	.	.	.	.	.	16b-\	[ >
8r	.	8B-/J)	.	8en/J)	.	16an\	.
.	.	.	.	.	.	16g\JJ	]
=72	=72	=72	=72	=72	=72	=72	=72
(16AAn/LL	.	8r	.	8r	.	8.f\L	.
16GG#X/JJ	.	.	.	.	.	.	.
8AA/)	.	(8An/L	.	(8fn/L	.	.	.
.	.	.	.	.	.	16dd\Jk	<
4r	.	8F/	.	8an/	.	4ff\	.
.	.	8A/J)	.	8f/J)	.	.	.
=73	=73	=73	=73	=73	=73	=73	=73
(16AAn/LL	.	8r	.	8r	.	8een\L	.
16GG#X/JJ	.	.	.	.	.	.	.
8AA/)	.	(8c#X\L	.	(8en/L	.	8ee\J	.
4r	.	8en\	.	8g/	.	16ee\LL	[
.	.	.	.	.	.	16gg\	.
.	.	8c#\J)	.	8e/J)	.	16ff\	>
.	.	.	.	.	.	16ee\JJ	.
=74	=74	=74	=74	=74	=74	=74	=74
(16D/LL	.	8r	.	8r	.	16dd\LL	.
16C#X/	.	.	.	.	.	16an\	]
16D/	.	8f\L	.	(8d/L	.	16ff\	.
16C#/JJ	.	.	.	.	.	16een\JJ	.
8D/L)	.	8d\	.	8f/	.	8dd\	.
8DD/J	.	8f\J	.	8dd/J)	.	8r	.
*	*	*	*	*	*	*X8ba	*
=75	=75	=75	=75	=75	=75	=75	=75
!	!	!	!	!	!	!LO:TX:a:t=loco	!
8r	.	8r	.	4gg\	>	(16ccc\LL	p
.	.	.	.	.	.	16bbn\JJ	.
(8C\L	.	(8en\L	.	.	.	8ccc\)	.
8En\	.	8g\	.	16ff\LL	.	4r	.
.	.	.	.	16een\	.	.	.
8G\J)	.	8e\J)	.	16dd\	]	.	.
.	.	.	.	16cc\JJ	.	.	.
!!LO:PB:g=original
=76	=76	=76	=76	=76	=76	=76	=76
8r	.	4cc\	<	8r	.	(16ccc\LL	.
.	.	.	.	.	.	16bbn\JJ	.
(8C\L	.	.	[	(8ff\L	.	8ccc\)	.
8F\	.	16dd\LL	>	8aan\	.	4r	.
.	.	16cc\	.	.	.	.	.
8An\J)	.	16an\	]	8ff\J)	.	.	.
.	.	16f\JJ	.	.	.	.	.
=77	=77	=77	=77	=77	=77	=77	=77
8r	.	8r	.	16ff#X\LL	.	(16ccc\LL	.
.	.	.	.	16gg\	.	16bbn\JJ	.
(8C\L	.	(8en\L	.	16aan\	.	8ccc\)	.
.	.	.	.	16gg\JJ	.	.	.
8G\	.	8b-\	.	16ffn\LL	.	4r	.
!	!	!	!	!LO:TX:a:t=P:problem:♮ above	!	!	!
.	.	.	.	16een\	.	.	.
8B-\J)	.	8g\J)	.	16dd\	.	.	.
.	.	.	.	16cc\JJ	.	.	.
=78	=78	=78	=78	=78	=78	=78	=78
8r	.	(16bn\LL	.	8r	.	(16ccc\LL	.
.	.	16cc\	.	.	.	16bbn\JJ	.
(8C\L	.	16dd\	.	(8cc/L	.	8ccc\)	.
.	.	16cc\JJ	.	.	.	.	.
8F\	.	16b-X\LL	.	8an/	.	4r	.
.	.	16a-\	.	.	.	.	.
8An\J)	.	16g\	.	8cc/J)	.	.	.
.	.	16f\JJ)	.	.	.	.	.
=79	=79	=79	=79	=79	=79	=79	=79
(16AAn/LL	.	8r	.	8r	.	4ccc\	.
16GG#X/JJ	.	.	.	.	.	.	.
8AA/)	.	(8c\L	.	(8f/L	.	.	.
4r	.	8f\	.	8an/	.	16ccc\LL	.
.	.	.	.	.	.	16ddd\	.
.	.	8c\J)	.	8f/J)	.	16eeen\	.
.	.	.	.	.	.	16fff\JJ	.
=80	=80	=80	=80	=80	=80	=80	=80
(16BB-/LL	.	8r	.	8r	.	8fff\L	.
16AAn/JJ	.	.	.	.	.	.	.
8BB-/)	.	8d\L	.	(8f/L	.	8ddd\	.
4r	.	8f\	.	8b-/	.	8bb-\	.
.	.	8d\J	.	8f/J)	.	8gg\J	.
=81	=81	=81	=81	=81	=81	=81	=81
(16C/LL	.	8r	.	8r	.	16ff\LL	.
16BBn/JJ	.	.	.	.	.	16aa-\	.
8C/)	.	8f\	.	8an/	.	16ddd\	.
.	.	.	.	.	.	16eee-\JJ	.
16r	.	8r	.	8r	.	16ccc\LL	.
*Xtuplet	*	*	*	*	*	*	*
!LO:TUP:b:problem:klamra łukowa	!	!	!	!	!	!	!
24C/LL	.	.	.	.	.	16bbn\	.
24D/	.	.	.	.	.	.	.
.	.	8en\	.	8g/	.	16aa-\	.
24C/JJ	.	.	.	.	.	.	.
16r	.	.	.	.	.	16gg\JJ	.
=82	=82	=82	=82	=82	=82	=82	=82
(16D/LL	.	8r	.	8r	.	(8.bb-\L	.
16C#X/	.	.	.	.	.	.	.
16D/	.	(8d\L	.	(8f/L	.	.	.
16C#/JJ	.	.	.	.	.	16aan\Jk)	.
16D/LL	.	8f\	.	8d/	.	4aa\	.
16Cn/	.	.	.	.	.	.	.
16BBn/	.	8d\J)	.	8f/J)	.	.	.
16BB-X/JJ)	.	.	.	.	.	.	.
!!LO:LB:g=original
=83	=83	=83	=83	=83	=83	=83	=83
(16AAn/LL	.	8r	.	8r	.	4ccc\	.
16GG#X/JJ	.	.	.	.	.	.	.
8AA/)	.	(8c\L	.	(8f/L	.	.	.
4r	.	8f\	.	8an/	.	16ccc\LL	.
.	.	.	.	.	.	16ddd\	.
.	.	8c\J)	.	8f/J)	.	16eeen\	.
.	.	.	.	.	.	16fff\JJ	.
=84	=84	=84	=84	=84	=84	=84	=84
(16BB-/LL	.	8r	.	8r	.	16fff\LL	.
16C/JJ	.	.	.	.	.	16eeen\	.
8BB-/)	.	(8d\L	.	(8g/L	.	16ddd\	.
.	.	.	.	.	.	16ccc\JJ	.
4r	.	8g\	.	8b-/	.	16ccc\LL	.
.	.	.	.	.	.	16bb-\	.
.	.	8d\J)	.	8g/J)	.	16aan\	.
.	.	.	.	.	.	16gg\JJ	.
=85	=85	=85	=85	=85	=85	=85	=85
(16C/LL	.	8r	.	8r	.	16ff\LL	.
16BBn/	.	.	.	.	.	16aan\	.
16C/JJ)	.	(8f\L	.	(8an/L	.	16ddd\	.
16r	.	.	.	.	.	16ddd\JJ	.
(16C/LL	.	8g\	.	8b-/	.	16ccc\LL	.
16D/	.	.	.	.	.	16bbn\	.
16C/JJ)	.	8en\J)	.	8g/J	.	16aa\	.
16r	.	.	.	.	.	16gg\JJ	.
=86	=86	=86	=86	=86	=86	=86	=86
!	!	!	!	!	!	!LO:TUP:a	!
8F\	.	8f\	.	8an/)	.	12ff\L	.
.	.	.	.	.	.	12aan\	.
8r	.	(8f'\L	.	(8aL 8c'/	.	.	.
.	.	.	.	.	.	12bb-\J	.
*	*	*	*	*	*	*Xtuplet	*
4r	.	8f'\J)	.	8aJ 8c'/)	.	12ddd\L	.
.	.	.	.	.	.	12ccc\	.
.	.	8r	.	8r	.	.	.
.	.	.	.	.	.	12aa\J	.
=87	=87	=87	=87	=87	=87	=87	=87
8F\	.	8r	.	8r	.	12ff\L	.
.	.	.	.	.	.	12aan\	.
8r	.	(8f'\L	.	(8anL 8c'/	.	.	.
.	.	.	.	.	.	12bb-\J	.
4r	.	8f'\J)	.	8aJ 8c'/)	.	12ddd\L	.
.	.	.	.	.	.	12ccc\	.
.	.	8r	.	8r	.	.	.
.	.	.	.	.	.	12aa\J	.
=88	=88	=88	=88	=88	=88	=88	=88
8FF/	.	8r	.	8r	.	12ff\L	.
.	.	.	.	.	.	12aan\	.
8r	.	8f\	.	8an 8c/	.	.	.
.	.	.	.	.	.	12gg\J	.
8F\	.	8r	.	8r	.	12ff\L	.
.	.	.	.	.	.	12ccc\	.
8r	.	8f\	.	8a 8c/	.	.	.
.	.	.	.	.	.	12bb-\J	.
!!LO:LB:g=original
=89	=89	=89	=89	=89	=89	=89	=89
8FF/	.	8r	.	8r	.	12aan\L	.
.	.	.	.	.	.	12fffn\	.
8r	.	8f\	.	8an 8c/	.	.	.
.	.	.	.	.	.	12eeen\J	.
8F\	.	8r	.	8r	.	12fff\L	.
.	.	.	.	.	.	12ccc\	.
8r	.	8f\	.	8a 8c/	.	.	.
.	.	.	.	.	.	12aa\J	.
=90	=90	=90	=90	=90	=90	=90	=90
(8C/L	.	8r	.	8r	.	12gg\L	.
.	.	.	.	.	.	12een\	.
!LO:TX:t=P:problem:diminuendolike accent	!	!	!	!	!	!	!
8D-X^>/	.	8g\L	.	8b-L 8c/	.	.	.
.	.	.	.	.	.	12ff\J	.
8C/J)	.	8g\J	.	8b-J 8c/	.	12aan\L	.
.	.	.	.	.	.	12gg\	.
8r	.	8r	.	8r	.	.	.
.	.	.	.	.	.	12ee\J	.
=91	=91	=91	=91	=91	=91	=91	=91
(8C/L	.	8r	.	8r	.	12cc\L	.
.	.	.	.	.	.	12gg\	.
8BBn/	.	8g\L	.	8b-L 8c/	.	.	.
.	.	.	.	.	.	12aan\J	.
8C/J)	.	8g\J	.	8b-J 8c/	.	12ccc\L	.
.	.	.	.	.	.	12bb-\	.
8r	.	8r	.	8r	.	.	.
.	.	.	.	.	.	12gg\J	.
=92	=92	=92	=92	=92	=92	=92	=92
8C/	.	8r	.	8r	.	12een\L	.
.	.	.	.	.	.	12ee\	.
8r	.	8g\	.	8b- 8c/	.	.	.
.	.	.	.	.	.	12dd\J	.
8C/	.	8r	.	8r	.	12cc\L	.
.	.	.	.	.	.	12gg\	.
8r	.	8g\	.	8b- 8c/	.	.	.
.	.	.	.	.	.	12ff\J	.
=93	=93	=93	=93	=93	=93	=93	=93
8C/	.	8r	.	8r	.	12een\L	.
.	.	.	.	.	.	12bb-\	.
8r	.	8g\	.	8b- 8c/	.	.	.
.	.	.	.	.	.	12gg\J	.
8C/	.	8r	.	8r	.	12ee\L	.
.	.	.	.	.	.	12ccc\	.
8r	.	8g\	.	8b- 8c/	.	.	.
.	.	.	.	.	.	12bb-\J	.
=94	=94	=94	=94	=94	=94	=94	=94
(8F\L	<	8r	.	8r	.	12aan\L	.
.	.	.	.	.	.	12aa\	.
8G-X\	[ >	8f\L	.	8an/L	.	.	.
.	.	.	.	.	.	12bb-\J	.
8F\J)	]	8f\J	.	8a/J	.	12ddd\L	.
.	.	.	.	.	.	12ccc\	.
8r	.	8r	.	8r	.	.	.
.	.	.	.	.	.	12aa\J	.
=95	=95	=95	=95	=95	=95	=95	=95
(8D\L	.	8r	.	8r	.	12ff\L	.
.	.	.	.	.	.	12aan\	.
8C#X\	.	8f\L	.	8an/L	.	.	.
.	.	.	.	.	.	12bb-\J	.
8D\J)	.	8f\J	.	8a/J	.	12ddd\L	.
.	.	.	.	.	.	12ccc\	.
8r	.	8r	.	8r	.	.	.
.	.	.	.	.	.	12aa\J	.
!!LO:PB:g=original
=96	=96	=96	=96	=96	=96	=96	=96
8BBn/	.	8r	.	8r	.	12gg\L	.
.	.	.	.	.	.	12bbn\	.
8r	.	8f 8d\	.	8g/	.	.	.
.	.	.	.	.	.	12aan\J	.
8BB/	.	8r	.	8r	.	12gg\L	.
.	.	.	.	.	.	12ddd\	.
8r	.	8f 8d\	.	8g/	.	.	.
.	.	.	.	.	.	12ccc\J	.
=97	=97	=97	=97	=97	=97	=97	=97
8D/	.	8r	.	8r	.	12bbn\L	.
.	.	.	.	.	.	12fff\	.
8r	.	8f 8d\	.	8g/	.	.	.
.	.	.	.	.	.	12eeen\J	.
8G\	.	8r	.	8r	.	12ddd\L	.
.	.	.	.	.	.	12ccc\	.
8r	.	8f 8d\	.	8g/	.	.	.
.	.	.	.	.	.	12bb\J	.
=98	=98	=98	=98	=98	=98	=98	=98
(8C/L	.	8r	.	8r	.	12ccc\L	.
.	.	.	.	.	.	12een\	.
!LO:TX:t=P:problem:diminuendolike accent	!	!	!	!	!	!	!
8D-X^>/	.	8en\L	.	8g/L	.	.	.
.	.	.	.	.	.	12ff\J	.
8C/J)	.	8e\J	.	8g/J	.	12aan\L	.
.	.	.	.	.	.	12gg\	.
8r	.	8r	.	8r	.	.	.
.	.	.	.	.	.	12ee\J	.
=99	=99	=99	=99	=99	=99	=99	=99
!	!LO:HP:a	!	!	!	!	!	!
(8BB-X/L	<	8r	.	8r	.	12cc\L	.
.	.	.	.	.	.	12een\	.
!	!LO:HP:a	!	!	!	!	!	!
8C/	[ >	8enL 8c\	.	8g/L	.	.	.
.	.	.	.	.	.	12ff\J	.
8BB-/J)	]	8eJ 8c\	.	8g/J	.	12aan\L	.
.	.	.	.	.	.	12gg\	.
8r	.	8r	.	8r	.	.	.
.	.	.	.	.	.	12ee\J	.
=100	=100	=100	=100	=100	=100	=100	=100
(8AAn/L	.	8r	.	8r	.	12ff\L	.
.	.	.	.	.	.	12aan\	.
8GG#X/	.	8f 8c\	.	8f/	.	.	.
.	.	.	.	.	.	12bb-\J	.
8AA/J)	.	8r	.	8r	.	12ddd\L	.
.	.	.	.	.	.	12ccc\	.
8r	.	8f 8c\	.	8f/	.	.	.
.	.	.	.	.	.	12aa\J	.
=101	=101	=101	=101	=101	=101	=101	=101
(8AAn/L	.	8r	.	8r	.	12ff\L	.
.	.	.	.	.	.	12aan\	.
8BB-/	.	8e-X 8c\	.	8f/	.	.	.
.	.	.	.	.	.	12bb-\J	.
8AA/J)	.	8r	.	8r	.	12ddd\L	.
.	.	.	.	.	.	12ccc\	.
8r	.	8e- 8c\	.	8f/	.	.	.
.	.	.	.	.	.	12aa\J	.
=102	=102	=102	=102	=102	=102	=102	=102
!LO:TX:t=P:problem:mixed beam	!	!	!	!	!	!	!
8BB-/L	.	8r	.	8r	.	12bb-\L	.
.	.	.	.	.	.	12ddd\	.
!	!	!	!LO:DY:rj	!	!LO:DY:rj	!	!
8B-\	.	8dL 8B-\	f	8f/L	f	.	.
.	.	.	.	.	.	12ff\J	.
8BB-/J	.	8dJ 8B-\	.	8f/J	.	12bb-\L	.
.	.	.	.	.	.	12dd\	.
8r	.	8r	.	8ryy	.	.	.
.	.	.	.	.	.	12ff\J	.
!!LO:LB:g=original
=103	=103	=103	=103	=103	=103	=103	=103
2r	.	2r	.	2r	.	12b-\L	.
.	.	.	.	.	.	12dd\	.
.	.	.	.	.	.	12f\J	.
.	.	.	.	.	.	12b-/L	.
.	.	.	.	.	.	12d/	.
.	.	.	.	.	.	12f/J	.
=104	=104	=104	=104	=104	=104	=104	=104
8r	.	8r	.	8r	.	12e-/L	.
.	.	.	.	.	.	12g/	.
!LO:TX:t=P:problem:mixed beam	!	!	!	!	!	!	!
8E-\L	.	8c'\L	.	8e-L 8G'/	.	.	.
.	.	.	.	.	.	12e-/J	.
8EE-/	.	8c'\J	.	8e-J 8G'/	.	12cc\L	.
.	.	.	.	.	.	12g\	.
8E-\J	.	8r	.	8r	.	.	.
.	.	.	.	.	.	12ee-\J	.
=105	=105	=105	=105	=105	=105	=105	=105
2r	.	2r	.	2r	.	12cc\L	.
.	.	.	.	.	.	12gg\	.
.	.	.	.	.	.	12aan\J	.
.	.	.	.	.	.	12ccc\L	.
.	.	.	.	.	.	12bb-\	.
.	.	.	.	.	.	12gg\J	.
=106	=106	=106	=106	=106	=106	=106	=106
(8F\L	<	8r	.	8r	.	12ff\L	.
.	.	.	.	.	.	12bb-\	.
!	!	!	!	!LO:TX:t=P:problem:diminuendolike accent	!	!	!
8G-X\	[ >	8B-/L	.	8d^/L	.	.	.
.	.	.	.	.	.	12ccc\J	.
8F\J)	]	8B-/J	.	8d/J	.	12eee-\L	.
.	.	.	.	.	.	12ddd\	.
8r	.	8r	.	8r	.	.	.
.	.	.	.	.	.	12bb-\J	.
=107	=107	=107	=107	=107	=107	=107	=107
8F\	.	8r	.	8r	.	12eee-\L	.
.	.	.	.	.	.	12ddd\	.
8r	.	8B-/	.	8d/	.	.	.
.	.	.	.	.	.	12bb-\J	.
*	*	*	*	*	*	*rep	*
8FF/	.	8r	.	8r	.	12eee-\L	.
.	.	.	.	.	.	12ddd\	.
8r	.	8B-/	.	8d/	.	.	.
.	.	.	.	.	.	12bb-\J	.
*	*	*	*	*	*	*Xrep	*
=108	=108	=108	=108	=108	=108	=108	=108
(8F\L	<	8r	.	8r	.	12aan\L	.
.	.	.	.	.	.	12aa\	.
8G-X\	[ >	8c/L	.	8e-L 8c/	.	.	.
.	.	.	.	.	.	12bb-\J	.
8F\J)	]	8c/J	.	8e-J 8c/	.	12ddd\L	.
.	.	.	.	.	.	12ccc\	.
8r	.	8r	.	8r	.	.	.
.	.	.	.	.	.	12aa\J	.
=109	=109	=109	=109	=109	=109	=109	=109
8F\	.	8r	.	8r	.	12ddd\L	.
.	.	.	.	.	.	12ccc\	.
8r	.	8c/	.	8e- 8c/	.	.	.
.	.	.	.	.	.	12aan\J	.
*	*	*	*	*	*	*rep	*
8FF/	.	8r	.	8r	.	12ddd\L	.
.	.	.	.	.	.	12ccc\	.
8r	.	8c/	.	8e- 8c/	.	.	.
.	.	.	.	.	.	12aa\J	.
*	*	*	*	*Xtuplet	*	*Xrep	*
=110	=110	=110	=110	=110	=110	=110	=110
8BB-/	.	8B-/	.	12d/	.	4bb-\	.
.	.	.	.	12dd\L	.	.	.
8r	.	8r	.	.	.	.	.
.	.	.	.	12ee-\J	.	.	.
!	!	!LO:S:s=2:note:problem:note-level slur	!	!	!	!	!
!	!	!LO:TX:t=P:problem:diminuendolike accent	!	!	!	!	!
(<4BB-/	.	(4b- (>4d^<\	.	12gg\L	.	4r	.
.	.	.	.	12ff\	.	.	.
.	.	.	.	12dd\J	.	.	.
!!LO:LB:g=original
=111	=111	=111	=111	=111	=111	=111	=111
*	*	*Xtuplet	*	*	*	*	*
!	!	!LO:TX:t=P:problem:brak zakończenia drugiego łuku	!	!	!	!	!
8F\)	.	12an\L))	.	8cc\	.	4r	.
.	.	12cc\	.	.	.	.	.
8r	.	.	.	8r	.	.	.
.	.	12dd\J	.	.	.	.	.
!	!LO:DY:rj	!	!	!	!	!	!LO:DY:rj
4FF/	ff	12ff\L	.	4ee- 4f 4An/	.	4aan 4cc 4f'\	ff
.	.	12ee-\	.	.	.	.	.
.	.	12cc\J	.	.	.	.	.
=112	=112	=112	=112	=112	=112	=112	=112
8BB-/	.	8b-\	.	12ddL 12f 12B-/	.	4bb- 4dd 4f\	.
.	.	.	.	12dd/	.	.	.
8r	.	8r	.	.	.	.	.
.	.	.	.	12ee-/J	.	.	.
!	!	!LO:TX:t=P:problem:diminuendolike accent	!	!	!	!	!
(4BB-/	.	4b- 4d^<\	.	12gg/L	.	4r	.
.	.	.	.	12ff/	.	.	.
.	.	.	.	12dd/J	.	.	.
=113	=113	=113	=113	=113	=113	=113	=113
8F\)	.	12an\L	.	8cc\	.	4r	.
.	.	12cc\	.	.	.	.	.
8r	.	.	.	8r	.	.	.
.	.	12dd\J	.	.	.	.	.
4FF/	.	12ff\L	.	4ee- 4f 4An/	.	4aan 4cc 4f\	.
.	.	12ee-\	.	.	.	.	.
.	.	12cc\J	.	.	.	.	.
=114	=114	=114	=114	=114	=114	=114	=114
4BB-/	.	4b-\	.	4dd 4f 4B-/	.	4bb- 4dd 4f\	.
4B-\	.	4B-/	.	4dd 4f 4B-/	.	4bb- 4dd 4f\	.
=115	=115	=115	=115	=115	=115	=115	=115
!LO:TX:a:t=1ma	!	!	!	!	!	!	!
*>A1	*>A1	*>A1	*>A1	*>A1	*>A1	*>A1	*>A1
*	*	*	*	*	*	*tuplet	*
!	!	!	!	!	!	!LO:TUP:a:problem:łuczek zamiast numeru	!
4BB-/	.	4B-/	.	4dd 4f 4B-/	.	12bb-L 12dd 12f\	.
.	.	.	.	.	.	12b-\	.
.	.	.	.	.	.	12cc\J	.
!	!	!	!	!	!	!LO:TUP:a:problem:łuczek zamiast numeru	!
4r	.	4r	.	4r	.	12dd\L	.
.	.	.	.	.	.	12ee-\	.
.	.	.	.	.	.	12ff\J	.
=116:|!	=116:|!	=116:|!	=116:|!	=116:|!	=116:|!	=116:|!	=116:|!
!LO:TX:t=2da	!	!	!	!	!	!	!
*>A2	*>A2	*>A2	*>A2	*>A2	*>A2	*>A2	*>A2
!LO:TX:t=P:problem:mixed beam	!	!	!	!	!	!	!
8BB-'/L	.	4B-/	.	4dd 4f 4B-/	.	4bb- 4dd 4f\	.
(8B-\	.	.	.	.	.	.	.
!	!	!	!	!	!	!LO:TX:a:t=2	!
8An\	.	4r	.	4r	.	4r	.
8A-X\J)	.	.	.	.	.	.	.
=117||	=117||	=117||	=117||	=117||	=117||	=117||	=117||
*>B	*>B	*>B	*>B	*>B	*>B	*>B	*>B
*	*	*tremolo	*	*tremolo	*	*	*
!LO:TX:t=P:problem:mixed beam	!	!	!	!LO:TX:b:t=....	!LO:DY:rj	!	!
8G\L	.	8d\L	.	(8fL 8G'/	fp	4.gg\	fp
(8GG/	.	8d\	.	8f 8G'/	.	.	.
8BBn/	.	8d\	.	8f 8G'/	.	.	.
8D/J	.	8d\J	.	8fJ 8G'/	.	8dd\	.
=118	=118	=118	=118	=118	=118	=118	=118
!	!	!	!	!LO:TX:b:t=....	!	!	!
4G\)	.	8Bn/L	.	8fL 8G'/	.	8dd\L	.
.	.	8B/	.	8f 8G'/	.	16ee-\L	.
.	.	.	.	.	.	16ff\JJ	.
4r	.	8B/	.	8f 8G'/	.	8ee-\L	.
.	.	8B/J	.	8fJ 8G'/)	.	8dd\J	.
!!LO:PB:g=original
=119	=119	=119	=119	=119	=119	=119	=119
!LO:TX:t=P:problem:mixed beam	!	!	!	!	!	!	!
8G'\L	.	8c\L	.	8e-L 8G/	.	4.dd\	.
(8GG/	.	8c\	.	8e- 8G/	.	.	.
8C/	.	8c\	.	8e- 8G/	.	.	.
8E-/J	.	8c\J	.	8e-J 8G/	.	8cc\	.
=120	=120	=120	=120	=120	=120	=120	=120
4G\)	.	8c\L	.	8e-L 8G/	.	4cc\	.
.	.	8c\	.	8e- 8G/	.	.	.
4r	.	8c\	.	8e- 8G/	.	8r	.
.	.	8c\J	.	8e-J 8G/	.	[8cc\	.
=121	=121	=121	=121	=121	=121	=121	=121
!LO:TX:t=P:problem:mixed beam	!	!	!	!	!	!	!
8GG/L	.	8d\L	.	8fL 8G/	.	4cc\]	.
(>8G\	.	8d\	.	8f 8G/	.	.	.
*	*	*	*	*	*	*Xtuplet	*
8D\	.	8d\	.	8f 8G/	.	12bn\L	<
.	.	.	.	.	.	12dd\	.
8BBn\J	.	8d\J	.	8fJ 8G/	.	.	.
.	.	.	.	.	.	12ff\J	.
=122	=122	=122	=122	=122	=122	=122	=122
4GG/)	.	8Bn/L	.	8fL 8G/	.	[4aa-X\	>
.	.	8B/	.	8f 8G/	.	.	.
*	*	*	*	*	*	*tuplet	*
!	!	!	!	!	!	!LO:TUP:a	!
8r	.	8B/	.	8f 8G/	.	12aa-\L]	]
.	.	.	.	.	.	12gg\	.
(8GG/	.	8B/J	.	8fJ 8G/	.	.	.
.	.	.	.	.	.	12ff\J	]]
=123	=123	=123	=123	=123	=123	=123	=123
8AA-X/L)	.	8c\L	.	8e-/L	.	4.ff\	.
(8AA-/	.	8c\	.	8e-/	.	.	.
8C/	.	8c\	.	8e-/	.	.	.
8E-X/J	.	8c\J	.	8e-/J	.	8ee-\	.
=124	=124	=124	=124	=124	=124	=124	=124
4A-X\)	.	8c\L	.	8e-/L	.	4ee-\	.
.	.	8c\	.	8e-/	.	.	.
8r	.	8c\	.	8e-/	.	8r	.
*clefC4	*	*	*	*	*	*	*
!	!	!	!	!	!	!LO:TX:b:i:t=piu Lento	!LO:DY:a:rj
[8e-\	.	8c\J	.	8e-/J	.	8cc\	p
=125	=125	=125	=125	=125	=125	=125	=125
!	!LO:HP:a	!	!	!	!	!	!
2e-\_	<	8A-/L	.	(8e-L 8c/	<	(8ee-\L	.
.	.	8A-/	.	8e- 8c/	.	8aa-\	.
!	!LO:HP:a	!	!	!	!	!	!
.	[ >	8A-/	.	8e- 8c/	.	8ccc\	.
.	]]	8A-/J	.	8e-J 8c/	[[	8eee-\J	.
*	*	*Xtremolo	*	*Xtremolo	*	*	*
=126	=126	=126	=126	=126	=126	=126	=126
12e-\L]	.	4A-/	.	4e- 4c/)	>	4ccc\)	.
12d-X\	.	.	.	.	.	.	.
12c\J	.	.	.	.	.	.	.
12c\L	.	4r	.	4r	]	4r	.
12B-\	.	.	.	.	.	.	.
(12A-\J	.	.	.	.	.	.	.
=127	=127	=127	=127	=127	=127	=127	=127
*	*	*tremolo	*	*tremolo	*	*	*
[2a-\)	.	8A-/L	.	8fL 8d-X/	<	(8ff\L	.
.	.	8A-/	.	8f 8d-/	.	8aa-\	.
.	.	8A-/	.	8f 8d-/	[ >	8ddd-X\	.
.	.	8A-/J	.	8fJ 8d-/	]]	8eee-\J)	.
*	*	*Xtremolo	*	*Xtremolo	*	*	*
!!LO:LB:g=original
=128	=128	=128	=128	=128	=128	=128	=128
8a-\L]	.	4A-/	.	4f 4d-X/	.	4fff\	.
8f\	.	.	.	.	.	.	.
8d-X\	.	4r	.	4r	.	4r	.
8B-\J	.	.	.	.	.	.	.
=129	=129	=129	=129	=129	=129	=129	=129
*	*	*	*	*tremolo	*	*	*
!LO:TX:t=P:problem:obiegnik górny z kreską	!	!	!	!	!	!	!
4.GS/	.	[2E-/	.	(8d-X/L	.	(8eee-\L	.
.	.	.	.	8e-/	.	8dddn\	.
.	.	.	.	8d-/	.	8ddd-X\	.
8A-/	.	.	.	8e-/J)	.	8bb-\J	.
=130	=130	=130	=130	=130	=130	=130	=130
12B-\L	.	2E-/_	.	(8d-X/L	.	4gg\)	.
12c\	.	.	.	.	.	.	.
.	.	.	.	8e-/	.	.	.
12d-X\J	.	.	.	.	.	.	.
12dn\L	.	.	.	8d-/	.	4r	.
12e-\	.	.	.	.	.	.	.
.	.	.	.	8e-/J	.	.	.
12B-\J	.	.	.	.	.	.	.
=131	=131	=131	=131	=131	=131	=131	=131
(4.d-X\	.	2E-/]	.	8d-X/L	.	8r	.
.	.	.	.	8e-/	.	(8ee-\L	.
.	.	.	.	8d-/	.	8ff\	.
16e-\LL	.	.	.	8e-/J	.	8gg\J	.
16d-\JJ	.	.	.	.	.	.	.
*	*	*	*	*Xtremolo	*	*	*
=132	=132	=132	=132	=132	=132	=132	=132
4c\)	.	4A-/	.	4c/)	.	4aa-\)	.
4r	.	4r	.	4r	.	8r	.
.	.	.	.	.	.	16cc\LL	.
.	.	.	.	.	.	16dd-X\JJ	.
*clefF4	*	*	*	*	*	*	*
=133	=133	=133	=133	=133	=133	=133	=133
!	!	!	!	!	!LO:HP:a:t=cresc	!	!
(8C\L|	.	[2A-/	.	[2e-/	<	16ddn\LL	.
.	.	.	.	.	.	16ee-\	.
8E-\	.	.	.	.	.	16ff\	.
.	.	.	.	.	.	16ee-\JJ	.
!LO:TX:a:t=as	!	!	!	!	!	!LO:TX:t=P:problem:diminuendolike accent	!
8A-\	.	.	.	.	.	16aa-^<\LL	.
.	.	.	.	.	.	16gg\	.
8c\J	.	.	.	.	.	16ff\	.
.	.	.	.	.	.	16ee-\JJ	.
=134	=134	=134	=134	=134	=134	=134	=134
!LO:TX:t=P:problem:mixed beam	!	!	!	!	!	!LO:TX:t=P:problem:diminuendolike accent	!
8e-\L)	.	2A-/_	.	(2e-/]	.	16ccc^<\LL	.
.	.	.	.	.	.	16bb-\	.
(8CC/|	.	.	.	.	.	16aa-\	.
.	.	.	.	.	.	16gg\JJ	.
8EE-/	.	.	.	.	.	16aa-\LL	.
.	.	.	.	.	.	16gg\	.
8AA-/J	.	.	.	.	.	16ff\	.
.	.	.	.	.	.	16ee-\JJ	.
=135	=135	=135	=135	=135	=135	=135	=135
!LO:TX:t=P:problem:slur above	!	!	!	!	!	!	!
8C\L	.	2A-/]	.	[2f/)	.	16ff\LL	.
.	.	.	.	.	.	16ee-\	.
8E-\	.	.	.	.	.	16dd-X\	.
.	.	.	.	.	.	16cc\JJ	.
8A-\	.	.	.	.	.	16dd-\LL	.
.	.	.	.	.	.	16cc\	.
8C\J)	.	.	.	.	.	16b-\	.
.	.	.	.	.	.	16a-\JJ	.
!!LO:LB:g=original
=136	=136	=136	=136	=136	=136	=136	=136
!	!	!	!	!LO:TX:t=P:problem:brak zakończenia ligatury	!	!	!
8D-X|\L	.	[2A-/	.	2f/_	.	(16cc\LL	.
.	.	.	.	.	.	16b-\	.
(>8F\	.	.	.	.	.	16an\	<
.	.	.	.	.	.	16b-\JJ	.
8A-\	.	.	.	.	.	16ee-\LL	.
.	.	.	.	.	.	16dd-X\	.
8d-X\J	.	.	.	.	.	16cc\	.
.	.	.	.	.	.	16dd-\JJ	[[
=137	=137	=137	=137	=137	=137	=137	=137
!LO:TX:t=P:problem:mixed beam	!	!	!	!	!	!	!
8f\L	.	8A-/]	.	2f/]	.	8.gg\L	>
8DD-X/	.	4.B-/	.	.	.	.	.
.	.	.	.	.	.	16ff\Jk)	.
8FF/	.	.	.	.	.	16ee-\LL	.
.	.	.	.	.	.	16dd-X\	.
8D-X/J)	.	.	.	.	.	16cc\	.
.	.	.	.	.	.	16b-\JJ	]]
=138	=138	=138	=138	=138	=138	=138	=138
8E-'\L	.	2c\	.	[2e-/	.	(>4a-/	.
(8A-\	.	.	.	.	.	.	.
8c\	.	.	.	.	.	16b-/LL	.
.	.	.	.	.	.	16a-/	<
8A-\J)	.	.	.	.	.	16g/	.
.	.	.	.	.	.	16a-/JJ	[[
=139	=139	=139	=139	=139	=139	=139	=139
8E-'\L	.	2d-X\	.	4e-/]	.	4.cc/	>
(8G\	.	.	.	.	.	.	.
8B-\	.	.	.	4g/	.	.	.
8E-\J)	.	.	.	.	.	8b-/)	]
=140	=140	=140	=140	=140	=140	=140	=140
*	*	*	*	*	*	*Xtuplet	*
8A-\L	.	8c\	.	8a-/	.	12a-\L	.
.	.	.	.	.	.	12cc\|	.
8B--\	.	8e-L 8c\	.	8a-/L	.	.	.
.	.	.	.	.	.	12dd-X\J	.
8A-\J	.	8e-J 8c\	.	8a-/J	.	12ff\L	.
.	.	.	.	.	.	12ee-\	.
8r	.	8r	.	8r	.	.	.
.	.	.	.	.	.	12cc\J	.
=141	=141	=141	=141	=141	=141	=141	=141
8AA-/L	.	8r	.	8r	.	12a-\L	.
.	.	.	.	.	.	12cc\	.
8GG/	.	8e-L 8c\	.	8a-/L	.	.	.
.	.	.	.	.	.	12dd-X\J	.
8AA-/J	.	8e-J 8c\	.	8a-/J	.	12ff\L	.
.	.	.	.	.	.	12ee-\	.
8r	.	8r	.	8r	.	.	.
.	.	.	.	.	.	12cc\J	.
=142	=142	=142	=142	=142	=142	=142	=142
8AA-/	.	8r	.	8r	.	12a-\L	.
.	.	.	.	.	.	12cc\	.
8r	.	8e- 8c\	.	8a- 8c/	.	.	.
.	.	.	.	.	.	12b-\J	.
8A-\	.	8r	.	8r	.	12a-\L	.
.	.	.	.	.	.	12ee-\	.
8r	.	8e- 8c\	.	8a- 8c/	.	.	.
.	.	.	.	.	.	12dd-X\J	.
!!LO:PB:g=original
=143	=143	=143	=143	=143	=143	=143	=143
8AA-/	.	8r	.	8r	.	12cc\L	.
.	.	.	.	.	.	12ccc\	.
8r	.	8e- 8c\	.	8a- 8c/	.	.	.
.	.	.	.	.	.	12gg\J	.
8A-\	.	8r	.	8r	.	12aa-\L	.
.	.	.	.	.	.	12ee-\	.
8r	.	8e- 8c\	.	8a- 8c/	.	.	.
.	.	.	.	.	.	12cc\J	.
=144	=144	=144	=144	=144	=144	=144	=144
12E-\L	.	8r	.	8r	.	12b-/L	.
12F-X\	.	.	.	.	.	12g/	.
.	.	8e-L 8d-X\	.	8gL 8B-/	.	.	.
12E-\J	.	.	.	.	.	12a-/J	.
8A-\	.	8e-J 8d-\	.	8gJ 8B-/	.	12cc/L	.
.	.	.	.	.	.	12b-/	.
8r	.	8r	.	8r	.	.	.
.	.	.	.	.	.	12g/J	.
=145	=145	=145	=145	=145	=145	=145	=145
8E-\L	.	8r	.	8r	.	12e-/L	.
.	.	.	.	.	.	12b-/	.
8D\	.	8e-L 8d-X\	.	8gL 8B-/	.	.	.
.	.	.	.	.	.	12cc/J	.
8E-\J	.	8e-J 8d-\	.	8gJ 8B-/	.	12ee-/L	.
.	.	.	.	.	.	12dd-X/	.
8r	.	8r	.	8r	.	.	.
.	.	.	.	.	.	12b-/J	.
=146	=146	=146	=146	=146	=146	=146	=146
!	!	!	!	!	!	!LO:TX:t=P:problem:mixed beam	!
8E-\	.	8r	.	8r	.	12g/L	.
.	.	.	.	.	.	12gg\	.
8r	.	8e- 8d-X\	.	8g 8B-/	.	.	.
.	.	.	.	.	.	12ff\J	.
8EE-/	.	8r	.	8r	.	12ee-\L	.
.	.	.	.	.	.	12bb-\	.
8r	.	8e- 8d-\	.	8g 8B-/	.	.	.
.	.	.	.	.	.	12aa-\J	.
=147	=147	=147	=147	=147	=147	=147	=147
8E-\	.	8r	.	8r	.	12gg\L	.
.	.	.	.	.	.	12ddd-X\	.
8r	.	8e- 8d-X\	.	8g 8B-/	.	.	.
.	.	.	.	.	.	12bb-\J	.
8EE-/	.	8r	.	8r	.	12gg\L	.
.	.	.	.	.	.	12ee-\	.
8r	.	8e- 8d-\	.	8g 8B-/	.	.	.
.	.	.	.	.	.	12dd-X\J	.
=148	=148	=148	=148	=148	=148	=148	=148
8AA-/L	.	8r	.	8r	.	12cc\L	.
.	.	.	.	.	.	12cc\	.
8BB--/	.	8e-L 8c\	.	8a-L 8c/	.	.	.
.	.	.	.	.	.	12dd-X\J	.
8AA-/J	.	8e-J 8c\	.	8a-J 8c/	.	12ff\L	.
.	.	.	.	.	.	12ee-\	.
8r	.	8r	.	8r	.	.	.
.	.	.	.	.	.	12cc\J	.
=149	=149	=149	=149	=149	=149	=149	=149
(8FF/L	.	8r	.	8r	.	12a-\L	.
.	.	.	.	.	.	12cc\	.
8EEn/	.	8f\L	.	8a-L 8c/	.	.	.
.	.	.	.	.	.	12dd-X\J	.
8FF/J)	.	8f\J	.	8a-J 8c/	.	12ff\L	.
.	.	.	.	.	.	12ee-\	.
8r	.	8r	.	8r	.	.	.
.	.	.	.	.	.	12cc\J	.
!!LO:LB:g=original
=150	=150	=150	=150	=150	=150	=150	=150
8DD/	.	8r	.	8r	.	12b-\L	.
.	.	.	.	.	.	12ddn\	.
8r	.	8f\	.	8a- 8B-/	.	.	.
.	.	.	.	.	.	12cc\J	.
*	*	*rep	*	*rep	*	*	*
8D\	.	8r	.	8r	.	12b-\L	.
.	.	.	.	.	.	12ff\	.
8r	.	8f\	.	8a- 8B-/	.	.	.
.	.	.	.	.	.	12ee-\J	.
*	*	*Xrep	*	*Xrep	*	*	*
=151	=151	=151	=151	=151	=151	=151	=151
8BB-\	.	8r	.	8r	.	12dd\L	.
.	.	.	.	.	.	12aa-\	.
8r	.	8f\	.	8a- 8B-/	.	.	.
.	.	.	.	.	.	12gg\J	.
*	*	*rep	*	*rep	*	*	*
8BB-\	.	8r	.	8r	.	12ff\L	.
.	.	.	.	.	.	12ee-\	.
8r	.	8f\	.	8a- 8B-/	.	.	.
.	.	.	.	.	.	12dd\J	.
*	*	*Xrep	*	*Xrep	*	*	*
=152	=152	=152	=152	=152	=152	=152	=152
(8E-\L	.	8r	.	8r	.	12ee-\L	.
.	.	.	.	.	.	12gg\	.
8F-X\	.	8e-\L	.	8gL 8B-/	.	.	.
.	.	.	.	.	.	12aa-\J	.
8E-\J)	.	8e-\J	.	8gJ 8B-/	.	12ccc\L	.
.	.	.	.	.	.	12bb-\	.
8r	.	8r	.	8r	.	.	.
.	.	.	.	.	.	12gg\J	.
=153	=153	=153	=153	=153	=153	=153	=153
(8E-\L	.	8r	.	8r	.	12ee-\L	.
.	.	.	.	.	.	12gg\	.
8D\	.	8e-\L	.	8gL 8B-/	.	.	.
.	.	.	.	.	.	12aa-\J	.
8E-\J)	.	8e-\J	.	8gJ 8B-/	.	12ccc\L	.
.	.	.	.	.	.	12bb-\	.
8r	.	8r	.	8r	.	.	.
.	.	.	.	.	.	12gg\J	.
=154	=154	=154	=154	=154	=154	=154	=154
8D/	.	8r	.	8r	.	12aa-\L	.
.	.	.	.	.	.	12bb-\	.
8r	.	8f\	.	8a- 8B-/	.	.	.
.	.	.	.	.	.	12aa-\J	.
8BB-/	.	8r	.	8r	.	12gg\L	.
.	.	.	.	.	.	12ff\	.
8r	.	8f\	.	8a- 8B-/	.	.	.
.	.	.	.	.	.	12ee-\J	.
=155	=155	=155	=155	=155	=155	=155	=155
*	*	*rep	*	*rep	*	*	*
8F\	.	8r	.	8r	.	12dd\L	.
.	.	.	.	.	.	12cc\	.
8r	.	8f\	.	8a- 8B-/	.	.	.
.	.	.	.	.	.	12b-\J	.
8BB-/	.	8r	.	8r	.	12aa-\L	.
.	.	.	.	.	.	12gg\	.
8r	.	8f\	.	8a- 8B-/	.	.	.
.	.	.	.	.	.	12ff\J	.
*	*	*Xrep	*	*Xrep	*	*	*
=156	=156	=156	=156	=156	=156	=156	=156
8E-\L	.	8r	.	8r	.	12ee-\L	.
.	.	.	.	.	.	12gg\	.
8F-X\	.	8e-\L	.	8gL 8B-/	.	.	.
.	.	.	.	.	.	12aa-\J	.
8E-\J	.	8e-\J	.	8gJ 8B-/	.	12ccc\L	.
.	.	.	.	.	.	12bb-\	.
8r	.	8r	.	8r	.	.	.
.	.	.	.	.	.	12gg\J	.
!!LO:LB:g=original
=157	=157	=157	=157	=157	=157	=157	=157
(8E-\L	.	8r	.	8r	.	12ee-\L	.
.	.	.	.	.	.	12gg\	.
!	!	!	!	!LO:TX:t=P:problem:diminuendolike accent	!	!	!
8D\	.	8e-\L	.	8gL 8B-/^	.	.	.
.	.	.	.	.	.	12aa-\J	.
8E-\J)	.	8e-\J	.	8gJ 8B-/	.	12ccc\L	.
.	.	.	.	.	.	12bb-\	.
8r	.	8r	.	8r	.	.	.
.	.	.	.	.	.	12gg\J	.
=158	=158	=158	=158	=158	=158	=158	=158
8D/	.	8r	.	8r	.	12aa-\L	.
.	.	.	.	.	.	12bb-\	.
8r	.	8f\	.	8a- 8B-/	.	.	.
.	.	.	.	.	.	12aa-\J	.
8BB-/	.	8r	.	8r	.	12gg\L	.
.	.	.	.	.	.	12ff\	.
8r	.	8f\	.	8a- 8B-/	.	.	.
.	.	.	.	.	.	12ee-\J	.
=159	=159	=159	=159	=159	=159	=159	=159
*	*	*rep	*	*rep	*	*	*
8F\	.	8r	.	8r	.	12dd\L	.
.	.	.	.	.	.	12cc\	.
8r	.	8f\	.	8a- 8B-/	.	.	.
.	.	.	.	.	.	12b-\J	.
8BB-/	.	8r	.	8r	.	12aa-\L	.
.	.	.	.	.	.	12gg\	.
8r	.	8f\	.	8a- 8B-/	.	.	.
.	.	.	.	.	.	12ff\J	.
*	*	*Xrep	*	*Xrep	*	*	*
=160	=160	=160	=160	=160	=160	=160	=160
(8E-\L	.	8r	.	8r	.	12ee-\L	.
.	.	.	.	.	.	12gg\	.
!	!	!	!	!LO:TX:t=P:problem:diminuendolike accent	!	!	!
8F-X\	.	8e-\L	.	8gL 8B-^/	.	.	.
.	.	.	.	.	.	12aa-\J	.
8E-\J)	.	8e-\J	.	8gJ 8B-/	.	12ccc\L	.
.	.	.	.	.	.	12bb-\	.
8r	.	8r	.	8r	.	.	.
.	.	.	.	.	.	12gg\J	.
=161	=161	=161	=161	=161	=161	=161	=161
(8C/L	.	8r	.	8r	.	12ee-\L	.
.	.	.	.	.	.	12gg\	.
!	!	!	!	!LO:TX:t=P:problem:diminuendolike accent	!	!	!
8BBn/	.	8e-\L	.	8fL 8An^/	.	.	.
.	.	.	.	.	.	12aa-\J	.
8C/J)	.	8e-\J	.	8fJ 8A/	.	12ccc\L	.
.	.	.	.	.	.	12bb-\	.
8r	.	8r	.	8r	.	.	.
.	.	.	.	.	.	12gg\J	.
=162	=162	=162	=162	=162	=162	=162	=162
8AAn/	.	8r	.	8r	.	12ff\L	.
.	.	.	.	.	.	12aan\	.
8r	.	8e- 8c\	.	8f 8An/	.	.	.
.	.	.	.	.	.	12gg\J	.
8FF/	.	8r	.	8r	.	12ff\L	.
.	.	.	.	.	.	12ccc\	.
8r	.	8e- 8c\	.	8f 8A/	.	.	.
.	.	.	.	.	.	12bb-\J	.
=163	=163	=163	=163	=163	=163	=163	=163
*	*	*rep	*	*	*	*	*
8C/	.	8r	.	8r	.	12aan\L	.
.	.	.	.	.	.	12eee-\	.
8r	.	8e- 8c\	.	8f 8An/	.	.	.
.	.	.	.	.	.	12ddd\J	.
*	*	*	*	*rep	*	*	*
8FF/	.	8r	.	8r	.	12ccc\L	.
.	.	.	.	.	.	12bb-\	.
8r	.	8e- 8c\	.	8f 8A/	.	.	.
.	.	.	.	.	.	12aa\J	.
*	*	*Xrep	*	*Xrep	*	*	*
!!LO:PB:g=original
=164	=164	=164	=164	=164	=164	=164	=164
!LO:TX:t=P:problem:mixed beam	!LO:DY:rj	!	!	!	!	!	!
8BB-'>/L	f	8r	.	8r	.	12bb-\L	.
.	.	.	.	.	.	12ddd\	.
!	!	!	!LO:DY:rj	!	!LO:DY:rj	!	!
8B-'>\	.	(8dL 8B-'\	f	(8f'/L	f	.	.
.	.	.	.	.	.	12ff\J	.
8BB-'>/J	.	8dJ 8B-'\)	.	8f'/J)	.	12bb-\L	.
.	.	.	.	.	.	12dd\	.
8r	.	8r	.	8r	.	.	.
.	.	.	.	.	.	12ff\J	.
=165	=165	=165	=165	=165	=165	=165	=165
2r	.	2r	.	12b-\L	.	12b-\L	.
.	.	.	.	12dd\	.	12dd\	.
.	.	.	.	12f\J	.	12f\J	.
.	.	.	.	12b-\L	.	12b-\L	.
.	.	.	.	12d\	.	12d\	.
.	.	.	.	12f\J	.	12f\J	.
=166	=166	=166	=166	=166	=166	=166	=166
2r	.	2r	.	8B-'/L	.	8B-/L|	.
.	.	.	.	(16c/L	.	(16c/L	.
.	.	.	.	16d/JJ	.	16d/JJ	.
.	.	.	.	16e-/LL	.	16e-/LL	.
.	.	.	.	16f/	.	16f/	.
.	.	.	.	16g/	.	16g/	.
.	.	.	.	16an/JJ)	.	16an/JJ)	.
=167	=167	=167	=167	=167	=167	=167	=167
!	!LO:DY:rj	!	!LO:DY:rj	!LO:TX:a:t=Col 1o	!	!	!
8BB-'\L	ff	8B-'\L	ff	8b-\Lyy	ffy	8b-\L	ff
(16C\L	.	(16c\L	.	(y16cc\Lyy	.	(16cc\L	.
16D\JJ	.	16d\JJ	.	16dd\JJyy	.	16dd\JJ	.
16E-\LL	.	16e-\LL	.	16ee-\LLyy	.	16ee-\LL	.
16F\	.	16f\	.	16ff\yy	.	16ff\	.
16G\	.	16g\	.	16gg\yy	.	16gg\	.
16An\JJ	.	16an\JJ	.	16aan\JJyy	.	16aan\JJ	.
=168	=168	=168	=168	=168	=168	=168	=168
8.B-\L)	.	8.b-\L)	.	4bb-\)yy	.	4bb-\)	.
16B-'\K	.	16b-'\K	.	.	.	.	.
8.F'\	.	8.f'\	.	4bb-yy 4ddyy 4f\yy	.	4bb- 4dd 4f\	.
16D'\Jk	.	16d'\Jk	.	.	.	.	.
=169	=169	=169	=169	=169	=169	=169	=169
*	*	*	*	*	*	*tuplet	*
!	!	!	!	!	!	!LO:TX:t=P:problem:mixed beam	!
!	!	!	!	!	!	!LO:TUP:a	!
4BB-/	.	4B-/	.	4B-/	.	12B-/L	.
.	.	.	.	.	.	12b-\	.
.	.	.	.	.	.	12cc\J	<
!	!	!	!	!	!	!LO:TUP:a	!
4r	.	4r	.	4r	.	12dd\L	.
.	.	.	.	.	.	12ee-\	.
.	.	.	.	.	.	12ff\J	[[
=170	=170	=170	=170	=170	=170	=170	=170
4E-\	.	4e-\	.	4ee- 4g 4B-/	.	4gg 4b- 4e-\	.
4BB-/	.	4B-/	.	4dd 4f 4B-/	.	4ff 4b- 4d\	.
=171	=171	=171	=171	=171	=171	=171	=171
!LO:TX:t=P:problem:mixed beam	!	!LO:TX:t=P:problem:mixed beam	!	!	!	!	!
8EE-/L	.	8E-/L	.	8ee-L 8g/	.	8ee-L 8g 8B-\	.
8E-\J	.	8e-\J	.	8ee-J 8g/	.	8ee-J 8g 8B-\	.
4r	.	8r	.	8r	.	4r	.
!	!	!	!	!	!LO:DY:a:rj	!	!
.	.	(16e-\LL	.	(16g/LL	p	.	.
.	.	16f\JJ)	.	16a-/JJ)	.	.	.
!!LO:LB:g=original
=172	=172	=172	=172	=172	=172	=172	=172
2r	.	16g\LL	.	16b-\LL	.	2r	.
.	.	16a-\	.	16cc\	.	.	.
.	.	16g\	.	16b-\	.	.	.
.	.	16a-\JJ	.	16cc\JJ	.	.	.
.	.	16g\LL	.	16b-\LL	.	.	.
.	.	16f\	.	16a-\	.	.	.
.	.	16e-\	.	16g\	.	.	.
.	.	16f\JJ	.	16a-\JJ	.	.	.
=173	=173	=173	=173	=173	=173	=173	=173
2r	.	8g\L	.	8b-\L	.	2r	.
.	.	8g\J	.	8b-\J	.	.	.
.	.	4r	.	4r	.	.	.
=174	=174	=174	=174	=174	=174	=174	=174
!	!	!	!	!	!	!	!LO:DY:rj
4BB-/	.	4B-/	.	4dd 4f 4B-/	f	4aa-X 4b- 4d\	f
4E-\	.	4B-/	.	4ee- 4g 4B-/	.	4gg 4b- 4e-\	.
=175	=175	=175	=175	=175	=175	=175	=175
!LO:TX:t=P:problem:mixed beam	!	!	!	!	!	!	!
8B-\L	.	8B-/L	.	8ddL 8f 8B-/	.	8ffL 8b- 8d\	.
8BB-/J	.	8B-/J	.	8ddJ 8f/	.	8ffJ 8b- 8d\	.
4r	.	8r	.	8r	.	4r	.
.	.	16d\LL	.	16f/LL	p	.	.
.	.	16e-\JJ	.	16g/JJ	.	.	.
=176	=176	=176	=176	=176	=176	=176	=176
2r	.	16f\LL	.	16a-/LL	.	2r	.
.	.	16g\	.	16b-/	.	.	.
.	.	16f\	.	16a-/	.	.	.
.	.	16g\JJ	.	16b-/JJ	.	.	.
.	.	16f\LL	.	16a-/LL	.	.	.
.	.	16e-\	.	16g/	.	.	.
.	.	16d\	.	16f/	.	.	.
.	.	16e-\JJ	.	16g/JJ	.	.	.
=177	=177	=177	=177	=177	=177	=177	=177
2r	.	8f\L	.	8a-/L	.	2r	.
.	.	8f\J	.	8a-/J	.	.	.
.	.	4r	.	4r	.	.	.
=178	=178	=178	=178	=178	=178	=178	=178
4e-\	.	2r	.	2r	.	4gg\	.
4c\	.	.	.	.	.	4ee-\	.
=179	=179	=179	=179	=179	=179	=179	=179
8An\L	.	8r	.	8r	.	8cc\L	.
8A\J	.	(16f\LL	.	(16an\LL	.	8cc\J	.
.	.	16g\JJ	.	16b-\JJ	.	.	.
4r	.	16a-\LL	.	16cc\LL	.	4r	.
.	.	16b-\	.	16dd\	.	.	.
.	.	16cc\	.	16ee-\	.	.	.
.	.	16dd\JJ)	.	16ff\JJ)	.	.	.
=180	=180	=180	=180	=180	=180	=180	=180
4r	.	8ee-\L	.	8gg'\L	.	4r	.
.	.	8ee-\	.	8gg'\	.	.	.
8F\L	.	8cc\	.	8aan'\	.	8ee-\L	.
8F\J	.	8cc\J	.	8aa'\J	.	8ee-\J	.
=181	=181	=181	=181	=181	=181	=181	=181
8G\L	.	8b-\L	.	8bb-\L	.	8dd\L	.
8G\J	.	8b-\J	.	8bb-\J	.	8dd\J	.
4r	.	4r	.	4r	.	4r	.
!!LO:LB:g=original
=182	=182	=182	=182	=182	=182	=182	=182
!	!LO:DY:a:rj	!	!	!	!	!	!LO:DY:rj
[2C/	mf >	[2B-/	.	[2en [2G/	.	4bb-\	mf >
.	]]	.	.	.	.	4gg\	]]
=183	=183	=183	=183	=183	=183	=183	=183
2C/]	.	(2B-/]	.	2enX] 2G/]	.	4een\	.
.	.	.	.	.	.	4cc\	.
=184	=184	=184	=184	=184	=184	=184	=184
4F\	.	8An/L)	.	8fL 8An'/	.	8aan'\L	.
.	.	8c/J	.	8fJ 8A'/	.	8aa'\J	.
(16F\LL	.	4r	.	4r	.	4r	.
16En\	.	.	.	.	.	.	.
16F\	.	.	.	.	.	.	.
16E\JJ	.	.	.	.	.	.	.
=185	=185	=185	=185	=185	=185	=185	=185
16F\LL	<	2r	.	2r	.	2r	.
16G\	.	.	.	.	.	.	.
16An\	.	.	.	.	.	.	.
16B-\JJ	.	.	.	.	.	.	.
16c\LL	.	.	.	.	.	.	.
16d\	.	.	.	.	.	.	.
16en\	.	.	.	.	.	.	.
16f\JJ)	.	.	.	.	.	.	.
=186	=186	=186	=186	=186	=186	=186	=186
!	!	!	!	!	!LO:DY:rj	!	!LO:DY:rj
16F\KL	[	16b-KL 16g\	.	16dd-XKL 16en/	ff	4ddd-X\	ff
8F\	.	8b- 8g\	.	8dd- 8e/	.	.	.
8F\	.	8b- 8g\	.	8dd- 8e/	.	.	.
.	.	.	.	.	.	4bb-\	.
8F\	.	8b- 8g\	.	8dd- 8e/	.	.	.
[16F\Jk	.	[16b-Jk [>16g\	.	[16dd-Jk [16e/	.	.	.
=187	=187	=187	=187	=187	=187	=187	=187
16F\KL]	.	16b-]KL 16g\]	.	16dd-]KL 16e/]	.	4gg\	.
8F\	.	8b- 8g\	.	8dd-y 8eny/	.	.	.
8F\	.	8b- 8g\	.	8dd- 8e/	.	.	.
.	.	.	.	.	.	4een\	.
8F\	.	8b- 8g\	.	8dd- 8e/	.	.	.
16F\Jk	.	16b-Jk 16g\	.	16dd-Jk 16e/	.	.	.
=188	=188	=188	=188	=188	=188	=188	=188
4F\	.	4an 4f\	.	4cc 4f/	.	8ff\L	.
.	.	.	.	.	.	8ff\J	.
4C/	.	4r	.	4r	.	(16ff\LL	.
.	.	.	.	.	.	16een\	.
.	.	.	.	.	.	16ff\	.
.	.	.	.	.	.	16ee\JJ	.
=189	=189	=189	=189	=189	=189	=189	=189
4AAn/	.	2r	.	2r	.	16ff\LL	<
.	.	.	.	.	.	16gg\	.
.	.	.	.	.	.	16aan\	.
.	.	.	.	.	.	16bb-\JJ)	.
4FF/	.	.	.	.	.	16ccc\LL	.
.	.	.	.	.	.	16ddd\	.
.	.	.	.	.	.	16eeen\	.
.	.	.	.	.	.	16fff\JJ	[[
=190	=190	=190	=190	=190	=190	=190	=190
16FF/KL	.	16dd-XKL 16en\	.	4ddd-X\	.	16ggg 16bb-\KL	.
8FF/	.	8dd- 8e\	.	.	.	8ggg 8bb-\	.
8FF/	.	8dd- 8e\	.	.	.	8ggg 8bb-\	.
.	.	.	.	4bb-\	.	.	.
8FF/	.	8dd- 8e\	.	.	.	8ggg 8bb-\	.
!	!	!LO:TX:a:t=P:problem:brak początku ligatury	!	!	!	!	!
[16FF/Jk	.	[16dd-Jk [>16e\	.	.	.	[16ggg 16bb-\Jk	.
!!LO:PB:g=original
=191	=191	=191	=191	=191	=191	=191	=191
!	!	!	!	!	!	!LO:TX:t=P:problem:brak zakończenia ligatury	!
16FF/KL]	.	16dd-X]KL 16enX\]	.	4gg\	.	16gggKL] 16bb-\	.
8FF/	.	8dd- 8e\	.	.	.	8ggg 8bb-\	.
8FF/	.	8dd- 8e\	.	.	.	8ggg 8bb-\	.
.	.	.	.	4een\	.	.	.
8FF/	.	8dd- 8e\	.	.	.	8ggg 8bb-\	.
16FF/Jk	.	16dd-Jk 16e\	.	.	.	16gggJk 16bb-\	.
=192	=192	=192	=192	=192	=192	=192	=192
4FF/	.	4cc 4f\	.	4ff\	.	4fff 4aan\	.
!	!LO:DY:a:rj	!	!	!	!	!	!
16F\LL	p	4r	.	4r	.	4r	.
16En\	.	.	.	.	.	.	.
16F\	.	.	.	.	.	.	.
16E\JJ	.	.	.	.	.	.	.
=193	=193	=193	=193	=193	=193	=193	=193
(16F\KL	.	2r	.	2r	.	2r	.
8F\	.	.	.	.	.	.	.
8F\	.	.	.	.	.	.	.
8F\	.	.	.	.	.	.	.
16F\Jk	.	.	.	.	.	.	.
=194	=194	=194	=194	=194	=194	=194	=194
16F\KL	.	(16d-X\KL	.	(16b-/KL	.	4gg-X\	.
8F\	.	8d-\	.	8b-/	.	.	.
8F\	.	8d-\	.	8b-/	.	.	.
.	.	.	.	.	.	(16gg-\LL	.
8F\	.	8d-\	.	8b-/	.	16ff\	.
.	.	.	.	.	.	16gg-\	.
16F\Jk)	.	16d-\Jk	.	16b-/Jk	.	16ff\JJ	.
=195	=195	=195	=195	=195	=195	=195	=195
4E-\	.	16d-X\KL	.	16b-/KL	.	16gg-X\KL)	.
.	.	8d-\	.	8b-/	.	8gg-\	.
.	.	8d-\)	.	8b-/	.	8gg-\	.
(16E-\LL	.	.	.	.	.	.	.
16D\	.	8d-\	.	8b-/	.	8gg-\	.
16E-\	.	.	.	.	.	.	.
16D\JJ	.	16d-\Jk	.	16b-/Jk)	.	16gg-\Jk	.
=196	=196	=196	=196	=196	=196	=196	=196
16E-\KL	.	16c\KL	.	16a-X/KL	.	4ff\	.
8E-\	.	8c\	.	8a-/	.	.	.
8E-\)	.	(8c\	.	8a-/	.	.	.
.	.	.	.	.	.	(16ff\LL	.
8E-\	.	8c\	.	8a-/	.	16een\	.
.	.	.	.	.	.	16ff\	.
16E-\Jk	.	16c\Jk	.	[16a-/Jk	.	16ee\JJ	.
=197	=197	=197	=197	=197	=197	=197	=197
4D-X/	.	16c\KL	.	16a-/KL]	.	16ff\KL)	.
.	.	8c\	.	8a-/	.	8ff\	.
.	.	8c\)	.	8a-/	.	8ff\	.
(16D-/LL	.	.	.	.	.	.	.
16C/	.	8c\	.	8a-/	.	8ff\	.
16D-/	.	.	.	.	.	.	.
16C/JJ	.	16c\Jk	.	16a-/Jk	.	16ff\Jk	.
=198	=198	=198	=198	=198	=198	=198	=198
16D-X/KL	.	16B-/KL	.	16g-X/KL	.	4ee-X\	.
8D-/	.	8B-/	.	8g-/	.	.	.
8D-/	.	8B-/	.	8g-/	.	.	.
.	.	.	.	.	.	(16ee-\LL	.
8D-/	.	8B-/	.	8g-/	.	16dd\	.
.	.	.	.	.	.	16ee-\	.
16D-/Jk)	.	[16B-/Jk	.	[16g-/Jk	.	16dd\JJ	.
!!LO:LB:g=original
=199	=199	=199	=199	=199	=199	=199	=199
!	!	!LO:TX:t=P:problem:brak zakończenia ligatury	!	!LO:TX:t=P:problem:brak zakończenia ligatury	!	!	!
4C/	.	16B-/KL]	.	16g-X/KL]	.	16ee-\KL	.
.	.	8B-/	.	8g-/	.	8ee-\	.
.	.	8B-/	.	8g-/	.	8ee-\)	.
16C/LL	.	.	.	.	.	.	.
16BBn/	.	8B-/	.	8g-/	.	8ee-\	.
16C/	.	.	.	.	.	.	.
16BB/JJ	.	16B-/Jk	.	16g-/Jk	.	16ee-\Jk	.
=200	=200	=200	=200	=200	=200	=200	=200
16C/KL	.	16An/KL	.	16f/KL	.	16ee-\KL	.
8FF/	.	8c/	.	8f 8c/	.	8aan^<\	.
8FF/	.	8c/	.	8f 8c/	.	16aa\Jk	.
.	<	.	.	.	.	(16aa\LL	.
8FF/	.	8c/	.	8f 8c/	.	16gg#X\)	.
.	.	.	.	.	.	16aa'\	.
16FF/Jk	[[	16c/Jk	.	16e-/Jk	.	16aa'\JJ	.
=201	=201	=201	=201	=201	=201	=201	=201
!LO:TX:t=P:problem:mixed beam	!	!LO:TX:t=P:problem:mixed beam	!	!	!	!	!
16GG-X/KL	.	16B-/KL	.	16d-X/KL	.	4bb-\	.
8G-X\	.	8B-/	.	8d-/	.	.	.
8G-\	.	8B-/	.	8d-/	.	.	.
.	.	.	.	.	.	(16bb-\LL	.
8G-\	.	8B-/	.	8d-/	.	16aan\	.
.	.	.	.	.	.	16bb-\	.
[16G-\Jk	.	[>16b-\Jk	.	[16d-/Jk	.	16aa\JJ	.
=202	=202	=202	=202	=202	=202	=202	=202
!	!	!	!	!LO:TX:t=P:problem:mixed beam	!	!	!
8G-X\L]	.	16b-\KL]	.	16d-X/KL]	.	8bb-\L)	<
.	.	8b-\	.	8dd-X\	.	.	.
!	!LO:HP:a	!	!	!	!	!	!
8G-\	<	.	.	.	.	8bb-\	.
.	.	8b-\	.	8dd-\	.	.	.
(8F\	.	.	.	.	.	8ccc\	.
.	.	(8a-\	.	8dd-\	.	.	.
8En\J	.	.	.	.	.	8ddd-X\J	.
.	[[	16g\Jk	.	16dd-\Jk	.	.	[[
=203	=203	=203	=203	=203	=203	=203	=203
8F\L)	.	8f\L)	.	8ddn\L	.	8dddn\L	.
8F'\J	.	(8b-\	.	(8d/	.	8ff\J	.
4r	.	8d\	.	8f/	.	16ff\LL	.
.	.	.	.	.	.	16een\	.
.	.	8B-\J)	.	8d/J	.	16ff\	.
.	.	.	.	.	.	16ee\JJ	.
=204	=204	=204	=204	=204	=204	=204	=204
*	*	*tremolo	*	*tremolo	*	*	*
2r	.	(8d/L	.	8f/L	.	8ff\L	.
.	.	8B-/	.	8d/	.	8bb-\J	.
!	!	!	!	!	!	!LO:TUP:a:problem:klamra łukowa, łuczek zamiast numeru	!
!	!	!	!	!	!	!LO:TX:t=P:problem:mixed beam	!
.	.	8d/	.	8f/	.	12dd\L	.
.	.	.	.	.	.	12gg\	.
.	.	8B-/J	.	8d/J)	.	.	.
.	.	.	.	.	.	12ff\J	.
*	*	*	*	*Xtremolo	*	*	*
=205	=205	=205	=205	=205	=205	=205	=205
8FF'/L	.	(8An/L)	.	8c'/L	.	4ee-\	.
8FF'/J	.	8c/	.	(8e-/	.	.	.
4r	.	8A/	.	8f/	.	(16ee-\LL	.
.	.	.	.	.	.	16dd\	.
.	.	8c/J	.	8e-/J	.	16ee-\	.
.	.	.	.	.	.	16dd\JJ	.
=206	=206	=206	=206	=206	=206	=206	=206
*	*	*	*	*tremolo	*	*	*
!	!	!LO:SIC:v:s=8An/L	!	!	!	!LO:TUP:a	!
2r	.	8A-/L	.	8f/L	.	12ee-\L)	.
.	.	.	.	.	.	12cc\	.
.	.	8c/	.	8e-/	.	.	.
.	.	.	.	.	.	12an\J	.
!	!	!LO:SIC:v:s=8An/	!	!	!	!LO:TUP:a	!
.	.	8A-/	.	8f/	.	12gg\L	.
.	.	.	.	.	.	12ff\	.
.	.	8c/J)	.	8e-/J)	.	.	.
.	.	.	.	.	.	12a\J	.
*	*	*	*	*Xtremolo	*	*	*
!!LO:LB:g=original
=207	=207	=207	=207	=207	=207	=207	=207
4BB-/	.	4B-/	.	4d/	.	4b-\	.
(16BB-/LL	.	4f\	.	4r	.	4r	.
16AAn/	.	.	.	.	.	.	.
16BB-/	.	.	.	.	.	.	.
16AA/JJ)	.	.	.	.	.	.	.
=208	=208	=208	=208	=208	=208	=208	=208
16BB-\LL	<	4d\	.	2r	.	2r	.
16C\	.	.	.	.	.	.	.
16D\	.	.	.	.	.	.	.
16E-\JJ	.	.	.	.	.	.	.
16F\LL	.	4B-\	.	.	.	.	.
16G\	.	.	.	.	.	.	.
16An\	.	.	.	.	.	.	.
16B-\JJ	[[	.	.	.	.	.	.
=209	=209	=209	=209	=209	=209	=209	=209
!	!	!	!	!	!LO:DY:rj	!	!LO:DY:rj
16BB-/KL	ff	16g-XKL 16An\	.	16e-KL 16c/	ff	4gg-X\|	ff
8BB-/	.	8g- 8A\	.	8e- 8c/	.	.	.
8BB-/	.	8g- 8A\	.	8e- 8c/	.	.	.
.	.	.	.	.	.	4ee-\|	.
8BB-/	.	8g- 8A\	.	8e- 8c/	.	.	.
[16BB-/Jk	.	[16g-Jk [>16A\	.	[16e-Jk [16c/	.	.	.
=210	=210	=210	=210	=210	=210	=210	=210
16BB-/KL]	>	16g-]KL 16A\]	.	16e-]KL 16c/]	.	4cc\|	.
8BB-/	.	8g-y 8Any\	.	8e- 8c/	.	.	.
8BB-/	.	8g- 8A\	.	8e- 8c/	.	.	.
.	.	.	.	.	.	4an\|	.
8BB-/	.	8g- 8A\	.	8e- 8c/	.	.	.
16BB-/Jk	]]	16g-Jk 16A\	.	16e-Jk 16c/	.	.	.
=211	=211	=211	=211	=211	=211	=211	=211
4BB-/	.	4f 4B-\	.	4d 4B-/	.	4b-\|	.
4F|\	.	4r	.	4r	.	(16b-\LL	.
.	.	.	.	.	.	16an\	.
.	.	.	.	.	.	16b-\	.
.	.	.	.	.	.	16a\JJ	.
=212	=212	=212	=212	=212	=212	=212	=212
4Dn|>/	.	2r	.	2r	.	16b-\LL	.
.	.	.	.	.	.	16cc\	<
.	.	.	.	.	.	16dd\	.
.	.	.	.	.	.	16ee-\JJ	.
4BB-|>/	.	.	.	.	.	16ff\LL	.
.	.	.	.	.	.	16gg\)	.
.	.	.	.	.	.	16aan\	.
.	.	.	.	.	.	16bb-\JJ	[[
=213	=213	=213	=213	=213	=213	=213	=213
!	!LO:DY:rj	!	!	!	!	!	!
16BB-/KL	ff	16g-XKL 16An\	.	4gg-X\	.	16cccKL 16ee-\	ff
8BB-/	.	8g- 8A\	.	.	.	8ccc 8ee-\	.
8BB-/	.	8g- 8A\	.	.	.	8ccc 8ee-\	.
.	.	.	.	4ee-\	.	.	.
8BB-/	.	8g- 8A\	.	.	.	8ccc 8ee-\	.
[16BB-/Jk	.	[16g-Jk [>16A\	.	.	.	[16cccJk [>16ee-\	.
=214	=214	=214	=214	=214	=214	=214	=214
16BB-/KL]	.	16g-]KL 16A\]	.	4cc\	.	16ccc]KL 16ee-\]	.
8BB-/	.	8g-y 8Any\	.	.	.	8ccc 8ee-\	.
8BB-/	.	8g- 8A\	.	.	.	8ccc 8ee-\	.
.	.	.	.	4an\	.	.	.
8BB-/	.	8g- 8A\	.	.	.	8ccc 8ee-\	.
16BB-/Jk	.	16g-Jk 16A\	.	.	.	16cccJk 16ee-\	.
!!LO:PB:g=original
=215	=215	=215	=215	=215	=215	=215	=215
8BB-/	.	8f 8B-\	.	8b- 8d/	.	8.bb-\L	.
8r	.	8r	.	8r	.	.	.
.	.	.	.	.	.	16ddd\Jk	.
[4BB-/	.	(4c/	.	(4an (4e-/	.	8ff\L	.
.	.	.	.	.	.	(16gg\L	.
.	.	.	.	.	.	16aan\JJ	.
=216	=216	=216	=216	=216	=216	=216	=216
8BB-/]	.	8B-/)	.	8b- 8d/))	.	8.bb-\L)	.
8r	.	8r	.	16r	.	.	.
.	.	.	.	16ff\	.	16ddd\Jk	.
!	!LO:HP:a	!	!	!	!	!	!
[4BB-/	>	(4An/	.	8gg-X\L	>	8eee-\L	>
.	.	.	.	16ff\L	.	16ddd\L	.
.	]]	.	.	16ee-\JJ	]]	16ccc\JJ	]]
=217	=217	=217	=217	=217	=217	=217	=217
8BB-/]	.	8B-/)	.	8dd\	.	8.bb-\L	.
8r	.	8r	.	8r	.	.	.
.	.	.	.	.	.	16ddd\Jk	.
[4BB-/	.	(4c/	.	(4ee- [>4f\	.	8ff\L	.
.	.	.	.	.	.	16gg\L	.
.	.	.	.	.	.	(16aan\JJ	.
=218	=218	=218	=218	=218	=218	=218	=218
8BB-/]	.	8B-/)	.	8.ddL 8.f\])	.	8.bb-\L)	.
8r	.	8r	.	.	.	.	.
.	.	.	.	16ff\Jk	.	16ddd\Jk	.
!	!LO:HP:a	!	!	!	!	!	!
4BB-/	>	(4An/	.	8gg-X\L	>	8eee-\L	>
.	.	.	.	16ff\L	.	16ddd\L	.
.	]]	.	.	16ee-\JJ	]]	16ccc\JJ	]]
=219	=219	=219	=219	=219	=219	=219	=219
4BB-/	.	4B-/)	.	4dd\	.	4bb-\	.
4B-\	.	4b- 4d\	.	4dd 4f 4B-/	.	4bb- 4dd 4f\	.
=220	=220	=220	=220	=220	=220	=220	=220
4BB-/	.	4B-/	.	4B-/	.	4B-/	.
4r	.	4r	.	4r	.	4r	.
!	!	!	!	!	!LO:DY:a	!	!
.	.	.	.	.	p	.	.
=221	=221	=221	=221	=221	=221	=221	=221
2r	.	2r	.	2r	.	4r	.
.	.	.	.	.	.	(16b-\LL	.
.	.	.	.	.	.	16cc\	.
.	.	.	.	.	.	16dd\	.
.	.	.	.	.	.	16ee-\JJ)	.
=222	=222	=222	=222	=222	=222	=222	=222
4r	.	4r	p	4r	p	8ff'\L	.
.	.	.	.	.	.	8ff'\J	.
!	!LO:DY:rj	!	!	!	!	!	!
4B-'\	p	(4f 4d'\	.	(4a-X 4B-'/	.	4r	.
=223	=223	=223	=223	=223	=223	=223	=223
4BB-'/	.	4f 4d'\)	.	4a- 4B-'/)	.	4r	.
4r	.	4r	.	4r	.	(16dd\LL	.
.	.	.	.	.	.	16ee-\	.
.	.	.	.	.	.	16ff\	.
.	.	.	.	.	.	16gg\JJ)	.
!!LO:LB:g=original
=224	=224	=224	=224	=224	=224	=224	=224
4r	.	4r	.	4r	.	8aa-X'\L	.
.	.	.	.	.	.	8aa-'\J	.
4B-\	.	4f 4d\	.	4a- 4B-/	.	4r	.
=225	=225	=225	=225	=225	=225	=225	=225
4BB-/	.	4f 4d\	.	4a- 4B-/	.	4r	.
4r	.	4r	.	4r	.	16ff\LL	.
.	.	.	.	.	.	16gg\	.
.	.	.	.	.	.	16aa-\	.
.	.	.	.	.	.	16bb-\JJ	.
=226	=226	=226	=226	=226	=226	=226	=226
!LO:TX:b:t=ten	!	!	!	!LO:TX:b:t=ten	!LO:HP:a	!	!
[2BB-/	.	[2f [>2d\	>	[2a- [2B-/	>	8.ccc\L	>
.	.	.	.	.	.	16bb-\Jk	.
.	.	.	.	.	.	16aa-\LL	.
.	.	.	.	.	.	16gg\	.
.	.	.	.	.	.	16ff\	.
.	.	.	.	.	.	16een\JJ	]]
=227	=227	=227	=227	=227	=227	=227	=227
2BB-/_	.	2f_ 2d\_>	]	2a-_ 2B-/_	]	16ff\LL	.
.	.	.	.	.	.	16een\	.
.	.	.	.	.	.	16gg\	.
.	.	.	.	.	.	16ff\JJ	.
.	.	.	.	.	.	16aa-X\LL	.
.	.	.	.	.	.	16gg\	.
!	!	!	!	!	!	!	!LO:HP:t=cresc
.	.	.	.	.	.	16ff\	<
!	!	!	!	!	!	!LO:TX:a:t=P:problem:♭ above	!
.	.	.	.	.	.	16ee-X\JJ	.
=228	=228	=228	=228	=228	=228	=228	=228
2BB-/_	.	2f_ 2d\_>	.	2a-_ 2B-/_	.	16dd\LL	.
.	.	.	.	.	.	16cc\	.
.	.	.	.	.	.	16ee-\	.
.	.	.	.	.	.	16dd\JJ	.
.	.	.	.	.	.	16ff\LL	.
.	.	.	.	.	.	16ee-\	.
.	.	.	.	.	.	16dd\	.
.	.	.	.	.	.	16cc\JJ	.
=229	=229	=229	=229	=229	=229	=229	=229
2BB-/_	.	2f_ 2d\_>	.	2a-_ 2B-/_	.	16b-\LL	.
.	.	.	.	.	.	16an\	.
.	.	.	.	.	.	16cc\	.
.	.	.	.	.	.	16b-\JJ	.
.	.	.	.	.	.	16dd\LL	.
.	.	.	.	.	.	16cc\	.
.	.	.	.	.	.	16ee-\	.
.	.	.	.	.	.	16dd\JJ	.
=230	=230	=230	=230	=230	=230	=230	=230
2BB-/_	.	2f_ 2d\_>	.	2a-_ 2B-/_	.	(16ff\LL	.
!	!	!	!	!	!	!LO:TX:b:i:t=piu lento	!
.	.	.	.	.	.	16een\)	.
.	.	.	.	.	.	(16gg\	.
.	.	.	.	.	.	16ee\JJ)	.
.	.	.	.	.	.	(16ff\LL	.
.	.	.	.	.	.	16ee\)	.
.	.	.	.	.	.	(16gg\	.
.	.	.	.	.	.	16ee\JJ)	.
=231	=231	=231	=231	=231	=231	=231	=231
.	.	.	.	.	.	(16qqeen/LL	.
.	.	.	.	.	.	16qqff/JJ	.
4BB-/]	.	4f] 4d\]	.	4a-] 4B-/]	.	2ffT\)	.
4r	.	4r	.	4r	.	.	.
!!LO:LB:g=original
=232	=232	=232	=232	=232	=232	=232	=232
2r;	.	2r;	.	2r;	.	2ff#Xt;\	<
.	.	.	.	.	.	(>16qqeen/LL	.
!	!	!	!	!	!	!LO:TX:b:i:t=con espresione	!
.	.	.	.	.	.	16qqff#/JJ	[[
=233	=233	=233	=233	=233	=233	=233	=233
!	!LO:DY:a:rj	!	!	!	!LO:DY:rj	!	!
(16E-\LL	p	8r	.	8r	p	4gg\)	<
16D\	.	.	.	.	.	.	.
16E-\	.	(8g\L	.	(8b-/L	.	.	.
16D\JJ	.	.	.	.	.	.	.
8E-\)	.	8e-\	.	8g/	.	16aa-X\LL	[ >
.	.	.	.	.	.	16gg\	.
!	!	!	!	!	!	!LO:TX:a:t=P:problem:♮ above	!
8r	.	8g\J)	.	8b-/J)	.	16ffn\	.
.	.	.	.	.	.	16ee-X\JJ	]
=234	=234	=234	=234	=234	=234	=234	=234
!LO:TX:t=P:problem:mixed beam	!	!	!	!	!	!	!
8B-\L	.	8r	.	8r	.	16ff\LL	.
.	.	.	.	.	.	16ee-\	.
8BB-/J	.	(8f\L	.	(8a-X/L	.	16dd\	.
.	.	.	.	.	.	16cc\JJ	.
4r	.	8d\	.	8f/	.	8b-\L	.
.	.	8f\J)	.	8a-/J)	.	16cc\L	.
.	.	.	.	.	.	16dd\JJ	.
=235	=235	=235	=235	=235	=235	=235	=235
(16C/LL	.	8r	.	8r	.	[4ee-\	.
16BBn/	.	.	.	.	.	.	<
16C/	.	(8e-\L	.	(8g/L	.	.	.
16BB/JJ	.	.	.	.	.	.	.
8C/)	.	8c\	.	8e-/	.	16ee-\LL]	.
.	.	.	.	.	.	16ff\	.
8r	.	8e-\J)	.	8g/J)	.	16ff#X\	.
.	.	.	.	.	.	16gg\JJ	[[
=236	=236	=236	=236	=236	=236	=236	=236
!LO:TX:t=P:problem:mixed beam	!	!	!	!	!	!	!
8G'\L	.	8r	.	8r	.	16gg\LL	.
.	.	.	.	.	.	16ffn\	.
8GG'/J	.	(8d/L	.	(8f/L	.	16ee-\	.
.	.	.	.	.	.	16dd\JJ	.
4r	.	8B-/	.	8d/	.	4dd\	.
.	.	8d/J)	.	8f/J)	.	.	.
=237	=237	=237	=237	=237	=237	=237	=237
16C/LL	.	8r	.	8r	.	4ee-\	.
16BBn/	.	.	.	.	.	.	.
16C/	.	(8c/L	.	(8e-/L	.	.	.
16BB/JJ	.	.	.	.	.	.	.
8C/	.	8G/	.	8g/	.	16ff\LL	.
.	.	.	.	.	.	16ee-\	.
8r	.	8An/J)	.	8e-/J)	.	16dd\	.
.	.	.	.	.	.	16cc\JJ	.
=238	=238	=238	=238	=238	=238	=238	=238
(16D/LL	.	8r	.	8r	.	16b-\LL	.
16C#X/JJ	.	.	.	.	.	16dd\	.
8D/)	.	(8B-/L	.	(8d/L	.	16ff\	.
.	.	.	.	.	.	16bb-\JJ	.
4r	.	8d/	.	8b-/	.	8.ddd\L	.
.	.	8B-/J)	.	8d/J)	.	.	.
.	.	.	.	.	.	16bb-\Jk	.
=239	=239	=239	=239	=239	=239	=239	=239
(16D/LL	.	8r	.	8r	.	8aan\L	.
16C#X/JJ	.	.	.	.	.	.	.
8D/)	.	(8An/L	.	(8f#X/L	.	[8aa\J	.
4r	.	8c/	.	8an/	.	16aa\LL]	.
.	.	.	.	.	.	16eee-\	.
.	.	8A/J)	.	8f#/J)	.	16ddd\	.
.	.	.	.	.	.	16ff#X\JJ	.
!!LO:PB:g=original
=240	=240	=240	=240	=240	=240	=240	=240
(16GG/LL	.	8r	.	8r	.	16gg\LL	.
16FF#X/	.	.	.	.	.	16dd\	.
!	!	!LO:TX:t=P:problem:mixed beam	!	!	!	!	!
16GG/	.	(>8G/L	.	(8b-/L	.	16bb-\	.
!	!	!	!	!	!	!LO:TX:a:t=P:problem:♮ above	!
16FF#/JJ	.	.	.	.	.	16aan\JJ	.
!LO:TX:t=P:problem:mixed beam	!	!	!	!	!	!	!
8GG/L)	.	8b-\	.	8g/	.	8gg\	.
8G'\J	.	8g\J)	.	8b-/J)	.	8r	.
=241	=241	=241	=241	=241	=241	=241	=241
!	!	!	!	!	!	!	!LO:DY:rj
8r	.	4a-X\	.	8r	.	(16bb-\LL	p
.	.	.	.	.	.	16aan\JJ	.
!	!	!	!	!LO:TX:t=P:problem:mixed beam	!	!	!
(8BB-\L	.	.	.	8d/L	.	8bb-\)	.
8D\	.	16g\LL	.	8f/	.	4r	.
.	.	16f\	.	.	.	.	.
8F\J)	.	16e-\	.	(16aa-\L	<	.	.
.	.	16d\JJ	.	16aan\JJ	.	.	.
=242	=242	=242	=242	=242	=242	=242	=242
8r	.	8r	.	4bb-\)	.	(16bb-\LL	.
.	.	.	.	.	.	16aan\JJ	.
(8BB-\L	.	(8e-\L	.	.	[	8bb-\)	.
8E-\	.	8g\	.	16ccc\LL	>	4r	.
.	.	.	.	16bb-\	.	.	.
8G\J)	.	8e-\J)	.	16gg\	.	.	.
.	.	.	.	16ee-\JJ	]]	.	.
=243	=243	=243	=243	=243	=243	=243	=243
8r	.	16g\LL	.	8r	.	(16bb-\LL	.
.	.	16a-X\	.	.	.	16aan\JJ	.
(8BB-\L	.	16b-\	.	8dd\L	.	8bb-\)	.
.	.	16a-\JJ	.	.	.	.	.
8F\	.	16g\LL	.	8aa-X\	.	4r	.
.	.	16f\	.	.	.	.	.
8A-\J)	.	16e-\	.	(16gg\L	.	.	.
.	.	16d\JJ	.	16ff\JJ	.	.	.
=244	=244	=244	=244	=244	=244	=244	=244
8r	.	8r	.	16aan\LL)	<	(16bb-\LL	.
.	.	.	.	16bb-\	.	16aan\JJ	.
(8BB-\L	.	(8b-\L	.	16ccc\	.	8bb-\)	.
.	.	.	.	16bb-\JJ	[ >	.	.
8E-\	.	8g\	.	16aa-X\LL	.	4r	.
.	.	.	.	16gg\	.	.	.
8G\J)	.	8b-\J)	.	16ff\	]	.	.
.	.	.	.	16ee-\JJ	.	.	.
=245	=245	=245	=245	=245	=245	=245	=245
(16G\LL	.	8r	.	8r	.	[4bb-\	.
16F#X\JJ	.	.	.	.	.	.	.
8G\)	.	(8B-/L	.	(8e-/L	.	.	.
4r	.	8e-/	.	8g/	.	16bb-\LL]	.
.	.	.	.	.	.	16ccc\	.
.	.	8B-/J)	.	8e-/J)	.	16ddd\	.
.	.	.	.	.	.	16eee-\JJ	.
=246	=246	=246	=246	=246	=246	=246	=246
!	!	!	!	!	!LO:HP:a:t=cresc	!	!
(16AA-X/LL	.	8r	.	8r	<	8eee-\L	.
16GG/JJ	.	.	.	.	.	.	.
8AA-/)	.	(8c\L	.	(8e-/L	.	8ccc\	.
4r	.	8e-\	.	8a-/	.	8aa-X\	.
.	.	8c\J)	.	8e-/J)	.	8ff\J	.
=247	=247	=247	=247	=247	=247	=247	=247
(16BB-/LL	.	8r	.	8r	.	16ee-\LL	.
16AAn/	.	.	.	.	.	16gg\	.
16BB-/JJ)	.	8e-\	.	8g/	.	16ccc\	.
16r	.	.	.	.	.	16eee-X\JJ	.
(16BB-/LL	.	8r	.	8r	.	16bb-\LL	.
16C/	.	.	.	.	.	16aan\	.
16BB-/JJ)	.	8d\	.	8f/	.	16aa-X\	.
16r	.	.	.	.	.	16ff\JJ	.
!!LO:LB:g=original
=248	=248	=248	=248	=248	=248	=248	=248
(16C/LL	.	8r	.	8r	.	8.aa-X\L	>
16BBn/	.	.	.	.	.	.	.
16C/	.	(8c\L	.	(8e-/L	.	.	.
16BB/JJ	.	.	.	.	.	16gg\Jk	.
16C/LL	.	8e-\	.	8c/	.	4gg\	]
16BB-X/	.	.	.	.	.	.	.
16AAn/	.	8c\J)	.	8e-/J)	.	.	.
16AA-X/JJ)	.	.	.	.	.	.	.
=249	=249	=249	=249	=249	=249	=249	=249
(16GG/LL	.	8r	.	8r	.	(4bb-\	<
16FF#X/JJ	.	.	.	.	.	.	.
8GG/)	.	(8B-\L	.	(8e-/L	.	.	.
4r	.	8e-\	.	8g/	.	16bb-\LL	.
.	.	.	.	.	.	16ccc\	.
.	.	8B-\J)	.	8e-/J)	.	16ddd\	.
.	.	.	.	.	.	16eee-\JJ)	[[
=250	=250	=250	=250	=250	=250	=250	=250
(16AA-X/LL	.	8r	.	8r	.	16eee-\LL	>
16BB-/JJ	.	.	.	.	.	16ddd\	.
8AA-/)	.	(8c\L	.	(8f/L	.	16eee-\	.
.	.	.	.	.	.	16ddd\JJ	.
4r	.	8f\	.	8a-X/	.	16ccc\LL	.
.	.	.	.	.	.	16aa-X\	.
.	.	8c\J)	.	8f/J)	.	16gg\	.
.	.	.	.	.	.	16ff\JJ	]]
=251	=251	=251	=251	=251	=251	=251	=251
(16BB-/LL	.	8r	.	8r	f	16ee-\LL	.
16AAn/	.	.	.	.	.	16gg\	.
!	!	!	!	!LO:N:n=2:vis=8.	!	!	!
16BB-/JJ)	.	(8e-\L	.	8gL 8B-/	.	16.ccc\	.
16r	.	.	.	.	.	.	.
.	.	.	.	.	.	32ccc-X^<\JJk	.
8BB-'/L	.	8f\)	.	8a-/	.	16bb-\LL	.
.	.	.	.	.	.	16aan\	.
(16C/L	.	8f'\J	.	8f/J	.	16aa-X\	.
16D/JJ	.	.	.	.	.	16ff\JJ	.
=252||	=252||	=252||	=252||	=252||	=252||	=252||	=252||
!	!	!	!	!	!	!LO:TX:a:i:t=Risoluto	!
!LO:TX:a:i:t=Risoluto	!	!	!	!	!	!LO:TX:t=P:problem:mixed beam	!
4E-\)|	.	8g'\	.	8e- 8B-/	.	8ee-\L	.
.	.	8r	.	8r	.	8g/J	.
4BB-/|>	.	4r	.	4r	.	(16a-\LL	.
.	.	.	.	.	.	16b-\	.
.	.	.	.	.	.	16cc\	.
.	.	.	.	.	.	16dd\JJ)	.
=253	=253	=253	=253	=253	=253	=253	=253
4GG/	.	2r	.	2r	.	16ee-\LL	.
.	.	.	.	.	.	16ff\	.
.	.	.	.	.	.	16ee-\	.
.	.	.	.	.	.	16dd\JJ	.
8r	.	.	.	.	.	16ee-\LL	.
.	.	.	.	.	.	16gg\	.
8GG/	.	.	.	.	.	16ff\	.
.	.	.	.	.	.	[16ee-\JJ	.
=254	=254	=254	=254	=254	=254	=254	=254
8AA-X/L	.	2r	.	2r	.	8ee-\L]	.
8FF/	.	.	.	.	.	16dd\L	.
.	.	.	.	.	.	16cc\JJ	.
8BB-/	.	.	.	.	.	16b-\LL	.
.	.	.	.	.	.	16aa-X\	.
8AA-/J	.	.	.	.	.	16gg\	.
.	.	.	.	.	.	16ff\JJ	.
!!LO:LB:g=original
=255	=255	=255	=255	=255	=255	=255	=255
16GG/LL	.	2r	.	2r	.	16ee-\LL	.
16AA-/	.	.	.	.	.	16ff\	.
16GG/	.	.	.	.	.	16gg\	.
16FF/JJ	.	.	.	.	.	16ff\JJ	.
16GG/LL	.	.	.	.	.	16ee-\LL	.
16FF/	.	.	.	.	.	16dd\	.
16GG/	.	.	.	.	.	16ee-\	.
16AAn/JJ	.	.	.	.	.	16ccc\JJ	.
=256	=256	=256	=256	=256	=256	=256	=256
16BB-/LL	.	2r	.	2r	.	4bb-\	.
16BB-/	.	.	.	.	.	.	.
16C/	.	.	.	.	.	.	.
16D/JJ	.	.	.	.	.	.	.
16E-\LL	.	.	.	.	.	4ff\	.
16F\	.	.	.	.	.	.	.
16G\	.	.	.	.	.	.	.
16An\JJ	.	.	.	.	.	.	.
=257	=257	=257	=257	=257	=257	=257	=257
16B-\LL	.	2r	.	2r	.	4dd\	.
16c\	.	.	.	.	.	.	.
16d\	.	.	.	.	.	.	.
16c\JJ	.	.	.	.	.	.	.
!LO:TX:t=P:problem:mixed beam	!	!	!	!	!	!	!
8B-\L	.	.	.	.	.	8r	.
[8BB-/J	.	.	.	.	.	8dd\	.
=258	=258	=258	=258	=258	=258	=258	=258
8BB-/L]	.	2r	.	2r	.	8ee-\L	.
16AAn/L	.	.	.	.	.	8cc\	.
16GG/JJ	.	.	.	.	.	.	.
16AA/LL	.	.	.	.	.	8ff\	.
16F/	.	.	.	.	.	.	.
16G/	.	.	.	.	.	8ee-\J	.
!LO:TX:b:t=P:problem:♮ below	!	!	!	!	!	!	!
16An/JJ	.	.	.	.	.	.	.
=259	=259	=259	=259	=259	=259	=259	=259
16B-\LL	.	2r	.	2r	.	16dd\LL	.
16c\	.	.	.	.	.	16ee-\	.
16B-\	.	.	.	.	.	16dd\	.
16An\JJ	.	.	.	.	.	16cc\JJ	.
8B-\L	.	.	.	.	.	16b-\LL	.
.	.	.	.	.	.	16cc-X\	.
16A\L	.	.	.	.	.	16ccn\	.
16A-X\JJ	.	.	.	.	.	16dd\JJ	.
=260	=260	=260	=260	=260	=260	=260	=260
16G\LL	.	4ee-\	.	2r	.	8ee-\L	.
16A-\	.	.	.	.	.	.	.
16B-\	.	.	.	.	.	8gg\J	.
16c\JJ	.	.	.	.	.	.	.
16d\LL	.	4b-\	.	.	.	16ff\LL	.
16B-\	.	.	.	.	.	16aa-\	.
16c\	.	.	.	.	.	16gg\	.
16d\JJ	.	.	.	.	.	16ff\JJ	.
=261	=261	=261	=261	=261	=261	=261	=261
16e-\LL	.	4g\	.	2r	.	8gg\L	.
16d\	.	.	.	.	.	.	.
16c\	.	.	.	.	.	(16aa-\L	.
16B-\JJ	.	.	.	.	.	16bb-\JJ	.
16A-\LL	.	8r	.	.	.	8ccc\L)	.
16G\	.	.	.	.	.	.	.
16F\	.	8g\	.	.	.	(16ddd\L	.
16E-\JJ	.	.	.	.	.	16eee-\JJ	.
=262	=262	=262	=262	=262	=262	=262	=262
4F\	.	8a-\L	.	2r	.	8eee-\L)	.
.	.	8f\	.	.	.	16ddd\L	.
.	.	.	.	.	.	16ccc\JJ	.
8BB-/L	.	8b-\	.	.	.	8ddd\L	.
!	!	!	!	!	!	!LO:TX:a:t=P:problem:brak początku ligatury	!
16C/L	.	8a-\J	.	.	.	[8fff\J	.
16D/JJ	.	.	.	.	.	.	.
!!LO:PB:g=original
=263	=263	=263	=263	=263	=263	=263	=263
16E-\LL	.	16g\LL	.	2r	.	8fff\]	.
16F\	.	16a-\	.	.	.	.	.
16G\	.	16g\	.	.	.	16eee-\LL	.
16A-\JJ	.	16f\JJ	.	.	.	16ddd\JJ	.
16G\LL	.	16e-\LL	.	.	.	16eee-\LL	.
16E-\	.	16f\	.	.	.	16ccc\	.
16D\	.	16g\	.	.	.	16fff\	.
16C\JJ	.	16an\JJ	.	.	.	16eee-\JJ	.
=264	=264	=264	=264	=264	=264	=264	=264
!	!	!LO:TX:t=P:problem:mixed beam	!	!	!	!	!
4BB-/	.	16b-\LL	.	4bb-\	.	4ddd\	.
.	.	16B-/	.	.	.	.	.
.	.	16c/	.	.	.	.	.
.	.	16d/JJ	.	.	.	.	.
4r	.	16e-\LL	.	4ff\	.	4r	.
.	.	16f\	.	.	.	.	.
.	.	16g\	.	.	.	.	.
.	.	16an\JJ	.	.	.	.	.
=265	=265	=265	=265	=265	=265	=265	=265
2r	.	16b-\LL	.	4dd\	.	2r	.
.	.	16cc\	.	.	.	.	.
.	.	16dd\	.	.	.	.	.
.	.	16cc\JJ	.	.	.	.	.
!	!	!LO:TX:t=P:problem:mixed beam	!	!	!	!	!
.	.	8b-\L	.	8r	.	.	.
.	.	[8B-/J	.	8dd\	.	.	.
=266	=266	=266	=266	=266	=266	=266	=266
2r	.	8B-/L]	.	8ee-\L	.	2r	.
.	.	16An/L	.	8cc\	.	.	.
.	.	16G/JJ	.	.	.	.	.
.	.	16A/LL	.	8ff\	.	.	.
.	.	16F/	.	.	.	.	.
.	.	16G/	.	8ee-\J	.	.	.
.	.	16A/JJ	.	.	.	.	.
=267	=267	=267	=267	=267	=267	=267	=267
2r	.	16B-/LL	.	16dd\LL	.	2r	.
.	.	16c/	.	16ee-\	.	.	.
.	.	16B-/	.	16dd\	.	.	.
.	.	16An/JJ	.	16cc\JJ	.	.	.
.	.	16B-/LL	.	16b-\LL	.	.	.
.	.	16A/	.	16cc\	.	.	.
.	.	16B-/	.	16dd\	.	.	.
!	!	!	!	!LO:TX:a:t=P:problem:♮ above	!	!	!
.	.	16G/JJ	.	16een\JJ	.	.	.
=268	=268	=268	=268	=268	=268	=268	=268
!	!	!LO:TX:t=P:problem:mixed beam	!	!	!	!	!
4F\	.	8F/L	.	16ff\LL	.	2r	.
.	.	.	.	16aan\	.	.	.
.	.	8f\J	.	16gg\	.	.	.
.	.	.	.	16ff\JJ	.	.	.
4C/	.	[4g\	.	16een\LL	.	.	.
.	.	.	.	16gg\	.	.	.
.	.	.	.	16ff\	.	.	.
.	.	.	.	16ee\JJ	.	.	.
=269	=269	=269	=269	=269	=269	=269	=269
4AAn/	.	4g\]	.	16ff\LL	.	2r	.
.	.	.	.	16gg\	.	.	.
.	.	.	.	16an\	.	.	.
.	.	.	.	16b-\JJ	.	.	.
8r	.	[4f\	.	16cc\LL	.	.	.
.	.	.	.	16dd\	.	.	.
!	!	!	!	!LO:TX:a:t=P:problem:♮ above	!	!	!
8AA/	.	.	.	16een\	.	.	.
.	.	.	.	16ff\JJ	.	.	.
=270	=270	=270	=270	=270	=270	=270	=270
8BB-/L	.	8f\]	.	16gg\LL	.	2r	.
.	.	.	.	16aan\	.	.	.
8GG/	.	16en\LL	.	16bb-\	.	.	.
.	.	16d\JJ	.	16ccc\JJ	.	.	.
8C/	.	8e\L	.	16bb-\LL	.	.	.
.	.	.	.	16gg\	.	.	.
8BB-/J	.	[8g\J	.	16een\	.	.	.
.	.	.	.	16dd\JJ	.	.	.
!!LO:LB:g=original
=271	=271	=271	=271	=271	=271	=271	=271
!	!	!	!	!LO:TX:a:t=V&colon; 2o	!	!LO:TX:a:t=V&colon; 1	!
16AAn/LL	.	8g\L]	.	16cc\LL	.	2r	.
16BB-/	.	.	.	16dd\	.	.	.
16AA/	.	(16f\L	.	16cc\	.	.	.
16GG/JJ	.	16en\JJ	.	16gg\JJ	.	.	.
8FF/L	.	16f\LL	.	16aan\LL	.	.	.
.	.	16c\	.	16bb-\	.	.	.
16GG/L	.	16f\	.	16bbn\	.	.	.
16AAn/JJ	.	16e-X\JJ	.	16ccc\JJ	.	.	.
=272	=272	=272	=272	=272	=272	=272	=272
!	!	!	!	!LO:TX:a:t=V 2.	!	!LO:TX:a:t=V&colon; 1	!
16BB-/LL	.	8d\L)|	.	4bb-\	.	4bb-\	.
16BB-/	.	.	.	.	.	.	.
16C/	.	(16c\L	.	.	.	.	.
16D/JJ	.	16B-\JJ	.	.	.	.	.
16E-\LL	.	8An/L)|	.	4r	.	4ff\	.
16F\	.	.	.	.	.	.	.
16G\	.	16B-/L	.	.	.	.	.
16An\JJ	.	16c/JJ	.	.	.	.	.
=273	=273	=273	=273	=273	=273	=273	=273
8B-\L	.	16d\LL	.	2r	.	4dd\	.
.	.	16e-\	.	.	.	.	.
8F\J	.	16f\	.	.	.	.	.
.	.	16e-\JJ	.	.	.	.	.
[4B-\	.	16d\LL	.	.	.	8r	.
.	.	16c\	.	.	.	.	.
.	.	16d\	.	.	.	8dd\	.
.	.	16e-\JJ	.	.	.	.	.
=274	=274	=274	=274	=274	=274	=274	=274
!LO:N:xstem:cue	!	!	!	!	!	!	!
8B-\]	.	16f\LL	.	2r	.	8ee-X\L	.
.	.	16g\	.	.	.	.	.
16An\LL	.	16f\	.	.	.	8cc\	.
16G\JJ	.	16e-\JJ	.	.	.	.	.
!LO:TX:t=P:problem:mixed beam	!	!	!	!	!	!	!
8A\L	.	16f\LL	.	.	.	8ff\	.
.	.	16an\	.	.	.	.	.
(8AAny/J	.	16b-\	.	.	.	8ee-\J	.
.	.	16cc\JJ	.	.	.	.	.
=275	=275	=275	=275	=275	=275	=275	=275
!LO:TX:t=P:problem:mixed beam	!	!	!	!	!	!	!
8BB-/L)	.	16b-\LL	.	2r	.	16dd\LL	.
.	.	16an\	.	.	.	16ee-\	.
[8B-\J	.	16b-\	.	.	.	16dd\	.
.	.	16cc\JJ	.	.	.	16cc\JJ	.
8B-\L]	.	8dd\L	.	.	.	8b-\L	.
16An\L	.	8fT\J	.	.	.	16cc\L	.
16A-X\JJ	.	.	.	.	.	16dd\JJ	.
=276	=276	=276	=276	=276	=276	=276	=276
!LO:TX:t=P:problem:mixed beam	!	!	!	!	!	!	!
16G\LL	.	(4e-\	.	4ee-\	.	16ee-\LL	.
(16EE-/	.	.	.	.	.	16gg\	.
16FF/	.	.	.	.	.	16ff\	.
16GG/JJ)	.	.	.	.	.	16ee-\JJ	.
16AA-/LL	.	16d\LL)	.	4b-\	.	8ff\L	.
16BB-/	.	16d\	.	.	.	.	.
16C/	.	16e-\	.	.	.	8ffT\J	.
16D/JJ	.	16f\JJ	.	.	.	.	.
=277	=277	=277	=277	=277	=277	=277	=277
8E-/L	.	16e-\LL	.	4g/	.	8gg\	.
.	.	16B-\	.	.	.	.	.
8BB-/J	.	16g\	.	.	.	4eee-^<\	.
.	.	16f\JJ	.	.	.	.	.
[4E-/	.	16e-/LL	.	8r	.	.	.
.	.	16d/	.	.	.	.	.
.	.	16c/	.	8g/	.	8gg\	.
.	.	16B-/JJ	.	.	.	.	.
=278	=278	=278	=278	=278	=278	=278	=278
!LO:N:xstem:cue	!	!LO:TX:t=P:problem:mixed beam	!	!	!	!	!
8E-/]	.	8B-/L	.	4.f/	.	8aa-X\L	.
16D/LL	.	[8b-\J|	.	.	.	8ff\	.
16C/JJ	.	.	.	.	.	.	.
[4D/	.	8b-\L]	.	.	.	8bb-\	.
.	.	16cc\L	.	8ff\	.	8aa-\J	.
.	.	16dd\JJ	.	.	.	.	.
!!LO:LB:g=original
=279	=279	=279	=279	=279	=279	=279	=279
*	*	*	*	*2\right	*	*	*
!LO:N:xstem:cue	!	!	!	!	!	!	!
!LO:TX:a:t=P:problem:brak zakończenia ligatury	!	!	!	!	!	!	!
8D/]	.	4ee-\	.	2ee-\	.	8gg\L	.
16C/LL	.	.	.	.	.	8ee-\	.
16BB-/JJ	.	.	.	.	.	.	.
[4C/	.	4e-\	.	.	.	8aa-\	.
.	.	.	.	.	.	8gg\J	.
=280	=280	=280	=280	=280	=280	=280	=280
!LO:N:xstem:cue	!	!	!	!	!	!	!
8C/]	.	[4g\	.	2dd\	.	8ff\L	.
16BB-/LL	.	.	.	.	.	8dd\	.
16AA-/JJ	.	.	.	.	.	.	.
[4BB-/	.	8g\L]	.	.	.	8gg\	.
.	.	16a-\L	.	.	.	8ff\J	.
.	.	16b-\JJ	.	.	.	.	.
=281	=281	=281	=281	=281	=281	=281	=281
!LO:N:xstem:cue	!	!	!	!	!	!	!
8BB-/]	.	4cc\	.	2cc\	.	8ee-\L	.
(16AA-/LL	.	.	.	.	.	8cc\	.
16GG/JJ)	.	.	.	.	.	.	.
4AA-/	.	8c\L	.	.	.	8ff\	.
.	.	16d\L	.	.	.	[8ee-\J	.
.	.	16e-\JJ	.	.	.	.	.
=282	=282	=282	=282	=282	=282	=282	=282
4BB-/	.	2f\	.	[4b-/	.	8ee-\]	.
.	.	.	.	.	.	16dd\LL	.
.	.	.	.	.	.	16cc\JJ	.
(4BB-/	.	.	.	8b-/L]	.	4dd\	.
.	.	.	.	8a-X/J	.	.	.
=283!|:	=283!|:	=283!|:	=283!|:	=283!|:	=283!|:	=283!|:	=283!|:
*>C	*>C	*>C	*>C	*>C	*>C	*>C	*>C
!LO:TX:t=P:problem:mixed beam	!	!	!	!	!	!	!
8EE-/L)	.	4.e-\	.	4g/	.	8ee-\L	.
16E-\L	.	.	.	.	.	8b-\J	.
16F\JJ	.	.	.	.	.	.	.
!	!	!	!	!	!	!LO:TX:t=P:problem:diminuendolike accent	!
8G\L	.	.	.	4g [4B-/	>	[4ee-^<\	.
8E-\J	.	(8g\	.	.	.	.	.
=284	=284	=284	=284	=284	=284	=284	=284
!	!	!	!	!	!	!LO:N:xstem:cue	!
8F\L	.	2f\)	.	2a- 2B-/]	]	8ee-\]	.
8BB-\J	.	.	.	.	.	16dd\LL	.
.	.	.	.	.	.	16cc\JJ	.
8BB-/L	.	.	.	.	.	8dd\L	.
16C/L	.	.	.	.	.	[8ff\J	.
16D/JJ	.	.	.	.	.	.	.
=285	=285	=285	=285	=285	=285	=285	=285
8E-\L|	.	2g\	.	2g 2B-/	.	8ff\]	.
(16E-\L	.	.	.	.	.	8b-\	.
16F\JJ	.	.	.	.	.	.	.
!	!	!	!	!	!	!LO:TX:t=P:problem:diminuendolike accent	!
8G\L)	.	.	.	.	.	[4ee-^<\	.
8E-\J	.	.	.	.	.	.	.
=286	=286	=286	=286	=286	=286	=286	=286
8F\L	.	2f\	.	2a- 2B-/	.	8ee-\]	.
8BB-\J	.	.	.	.	.	16dd\LL	.
.	.	.	.	.	.	16cc\JJ	.
8BB-/L	.	.	.	.	.	8dd\L	.
16C/L	.	.	.	.	.	8ff\J	.
16D/JJ	.	.	.	.	.	.	.
!!LO:PB:g=original
=287	=287	=287	=287	=287	=287	=287	=287
*	*	*	*	*^	*	*	*
*tremolo	*	*tremolo	*	*	*	*	*	*
!	!	!	!	!	!	!LO:HP:a	!	!
8BBn/L	.	(8f\L	>	[2g/	4Bn\	>	[2gg\	>
8GG/	.	8g\	.	.	.	.	.	.
8BB/	.	8f\	.	.	4ryy	.	.	.
8GG/J	.	8g\J	.	.	.	.	.	.
*	*	*	*	*v	*v	*	*	*
=288	=288	=288	=288	=288	=288	=288	=288
8BBn/L	.	8f\L	.	8g/L]	]	8gg\L]	.
8GG/	.	8g\	]	8f/	.	8ff\	]
8BB/	.	8f\	.	8e-/	.	8ee-\	.
8GG/J	.	8g\J)	.	8d/J	.	8dd\J	.
=289	=289	=289	=289	=289	=289	=289	=289
!	!	!	!	!LO:TX:a:t=in 8va 1o	!	!	!
8C/L	.	(8e-\L	.	16f\LLyy	.	16ff\LL	.
.	.	.	.	16e-\yy	.	16ee-\	.
8GG/	.	8g\	.	16d\yy	.	16dd\	.
.	.	.	.	16e-\JJyy	.	16ee-\JJ	.
8C/	.	8e-\	.	16d\LLyy	.	16dd\LL	.
.	.	.	.	16e-\yy	.	16ee-\	.
8GG/J	.	8g\J	.	16f\yy	.	16ff\	.
.	.	.	.	16e-\JJyy	.	16ee-\JJ	.
=290	=290	=290	=290	=290	=290	=290	=290
8AA-/L	.	8f\L	.	16d\LLyy	<	16dd\LL	<
.	.	.	.	16c\yy	.	16cc\	.
8C/	.	8a-\	.	16dd\yy	[	16ddd\	[
.	.	.	.	16cc\JJyy	>	16ccc\JJ	>
8AA-/	.	8f\	.	16b-\LLyy	.	16bb-\LL	.
.	.	.	.	16a-\yy	.	16aa-X\	.
8C/J	.	8a-\J)	.	16g\yy	.	16gg\	.
.	.	.	.	16f\JJyy	]]	16ff\JJ	]]
*Xtremolo	*	*	*	*	*	*	*
=291	=291	=291	=291	=291	=291	=291	=291
!	!LO:DY:rj	!	!LO:DY:rj	!	!LO:DY:rj	!	!
8BB-\L	f	8g\L	f	8g 8B-X/	f	(4ee-\	.
8E-\	.	8e-\	.	8r	.	.	.
8G\	.	8g\	.	(>4g [4B-/	.	16ff\LL	.
.	.	.	.	.	.	16ee-\	.
8E-\J	.	8e-\J	.	.	.	16dd\	<
.	.	.	.	.	.	16ee-\JJ	.
=292	=292	=292	=292	=292	=292	=292	=292
8BB-\L	.	8f\L	.	2a- 2B-/])	.	4.gg\)	.
8D\	.	8d\	.	.	.	.	[ >
8F\	.	8f\	.	.	.	.	.
8B-\J	.	8d\J	.	.	.	8ff\	]]
*	*	*Xtremolo	*	*	*	*	*
=293:|!	=293:|!	=293:|!	=293:|!	=293:|!	=293:|!	=293:|!	=293:|!
*>D	*>D	*>D	*>D	*>D	*>D	*>D	*>D
!!!OMD: Presto
*	*	*	*	*	*	*Xtuplet	*
4E-\	.	12e-\L	.	4g 4B-/	.	12ee-\L	.
.	.	12g\	.	.	.	12gg\	.
.	.	12a-\J	.	.	.	12aa-\J	.
4r	.	12cc\L	.	4gg 4b- 4e-\	.	12ccc\L	.
.	.	12b-\	.	.	.	12bb-\	.
.	.	12g\J	.	.	.	12gg\J	.
=294	=294	=294	=294	=294	=294	=294	=294
4E-\	.	12cc\L	.	4r	.	12ccc\L	.
.	.	12b-\	.	.	.	12bb-\	.
.	.	12g\J	.	.	.	12gg\J	.
4r	.	12cc\L	.	4gg 4b- 4e-\	.	12ccc\L	.
.	.	12b-\	.	.	.	12bb-\	.
.	.	12g\J	.	.	.	12gg\J	.
!!LO:LB:g=original
=295	=295	=295	=295	=295	=295	=295	=295
4BB-/	.	12f\L	.	4r	.	4ff\	.
.	.	12f\	.	.	.	.	.
.	.	12g\J	.	.	.	.	.
!	!	!	!	!	!	!	!LO:DY:rj
4B- 4F 4BB-/	.	12b-\L	.	4aa- 4b- 4d\	.	4ddd 4ff 4b-\	ff
.	.	12a-\	.	.	.	.	.
.	.	12f\J	.	.	.	.	.
=296	=296	=296	=296	=296	=296	=296	=296
4B- 4F 4BB-/	.	12b-\L	.	4aa- 4b- 4d\	.	4ddd 4ff 4b-\	.
.	.	12a-\	.	.	.	.	.
.	.	12f\J	.	.	.	.	.
*	*	*rep	*	*	*	*	*
4B- 4F 4BB-/	.	12b-\L	.	4aa- 4b- 4d\	.	4ddd 4ff 4b-\	.
.	.	12a-\	.	.	.	.	.
.	.	12f\J	.	.	.	.	.
*	*	*Xrep	*	*	*	*	*
=297	=297	=297	=297	=297	=297	=297	=297
4E-\	.	12e-\L	.	4gg 4b- 4e-\	.	12eee-L 12gg 12b-\	.
.	.	12g\	.	.	.	12gg\	.
.	.	12a-\J	.	.	.	12aa-\J	.
4r	.	12cc\L	.	4gg 4b- 4e-\	.	12ccc\L	.
.	.	12b-\	.	.	.	12bb-\	.
.	.	12g\J	.	.	.	12gg\J	.
=298	=298	=298	=298	=298	=298	=298	=298
4E-\	.	12cc\L	.	4r	.	12ccc\L	.
.	.	12b-\	.	.	.	12bb-\	.
.	.	12g\J	.	.	.	12gg\J	.
*	*	*rep	*	*	*	*	*
4r	.	12cc\L	.	4gg 4b- 4e-\	.	12ccc\L	.
.	.	12b-\	.	.	.	12bb-\	.
.	.	12g\J	.	.	.	12gg\J	.
*	*	*Xrep	*	*	*	*	*
=299	=299	=299	=299	=299	=299	=299	=299
4BB-/	.	12f\L	.	4r	.	4ff\	.
.	.	12f\	.	.	.	.	.
.	.	12g\J	.	.	.	.	.
4B- 4F 4BB-/	.	12b-\L	.	4aa- 4b- 4d\	.	4ddd 4ff 4b-\	.
.	.	12a-\	.	.	.	.	.
.	.	12f\J	.	.	.	.	.
=300	=300	=300	=300	=300	=300	=300	=300
4B- 4F 4BB-/	.	12b-\L	.	4aa- 4b- 4d\	.	4ddd 4ff 4b-\	.
.	.	12a-\	.	.	.	.	.
.	.	12f\J	.	.	.	.	.
*	*	*rep	*	*	*	*	*
4B- 4F 4BB-/	.	12b-\L	.	4aa- 4b- 4d\	.	4ddd 4ff 4b-\	.
.	.	12a-\	.	.	.	.	.
.	.	12f\J	.	.	.	.	.
*	*	*Xrep	*	*	*	*	*
=301	=301	=301	=301	=301	=301	=301	=301
4E-\	.	8e-\L|	.	4gg 4b- 4e-\	.	8eee-|L 8gg 8b-\	.
.	.	(16ee-\L	.	.	.	(16eee-\L	.
.	.	16dd\JJ	.	.	.	16ddd\JJ	.
4r	.	16ee-\LL	.	4r	.	16eee-\LL	.
.	.	16dd\	.	.	.	16ddd\	.
.	.	16ee-\	.	.	.	16eee-\	.
.	.	16dd\JJ)	.	.	.	16ddd\JJ)	.
=302	=302	=302	=302	=302	=302	=302	=302
2r	.	8ee-\L|	.	2r	.	8eee-\L|	.
.	.	(16dd\L	.	.	.	(16ddd\L	.
.	.	16cc\JJ	.	.	.	16ccc\JJ	.
.	.	16b-\LL	.	.	.	16bb-\LL	.
.	.	16a-\	.	.	.	16aa-\	.
.	.	16g\	.	.	.	16gg\	.
.	.	16f\JJ)	.	.	.	16ff\JJ)	.
!!LO:LB:g=original
=303	=303	=303	=303	=303	=303	=303	=303
8e-\L|	.	8e-\L|	.	8e-'/L	.	8ee-'\L	.
(16e-\L	.	(16ee-\L	.	(16e-/L	.	(16ee-\L	.
16d\JJ	.	16dd\JJ	.	16d/JJ	.	16dd\JJ	.
16e-\LL	.	16ee-\LL	.	16e-/LL	.	16ee-\LL	.
16d\	.	16dd\	.	16d/	.	16dd\	.
16e-\	.	16ee-\	.	16e-/	.	16ee-\	.
16d\JJ)	.	16dd\JJ)	.	16d/JJ)	.	16dd\JJ)	.
=304	=304	=304	=304	=304	=304	=304	=304
8e-\L|	.	8ee-\L|	.	8e-'/L	.	8ee-'\L	.
(16d\L	.	(16dd\L	.	(16f/L	.	(16ff\L	.
16c\JJ	.	16cc\JJ	.	16g/JJ	.	16gg\JJ	.
16B-\LL	.	16b-\LL	.	16a-/LL	.	16aa-\LL	.
16A-\	.	16a-\	.	16b-/	.	16bb-\	.
16G\	.	16g\	.	16cc/	.	16ccc\	.
16F\JJ)	.	16f\JJ)	.	16dd/JJ)	.	16ddd\JJ)	.
=305	=305	=305	=305	=305	=305	=305	=305
8E-\L	.	8e-\L	.	4ee-\	.	4eee-\	.
(>8e-\	.	8ee-\	.	.	.	.	.
8B-\	.	8b-\	.	4ee- 4g 4B-/	.	4eee- 4gg 4b-\	.
8G\J	.	8g\J	.	.	.	.	.
=306	=306	=306	=306	=306	=306	=306	=306
8E-/L)	.	8e-\L	.	4ee- 4g 4B-/	.	4eee- 4gg 4b-\	.
(8E-/	.	8e-\	.	.	.	.	.
8BB-/	.	8B-\	.	4ee- 4g 4B-/	.	4eee- 4gg 4b-\	.
8GG/J	.	8G\J	.	.	.	.	.
=307	=307	=307	=307	=307	=307	=307	=307
4EE-/)	.	4E-/	.	4ee- 4g 4B-/	.	4eee- 4gg 4b-\	.
4r	.	4r	.	4r	.	4r	.
=308	=308	=308	=308	=308	=308	=308	=308
4E- 4BB- 4EE-/	.	4e- 4G/	.	4ee- 4g 4B-/	.	4eee- 4gg 4b-\	.
8.r	.	8.r	.	8.r	.	8.r	.
16EE-/	.	16E-/	.	16e- 16G/	.	16e- 16G/	.
=309	=309	=309	=309	=309	=309	=309	=309
!LO:TX:b:t=Fine del'\nQuartetto	!	!	!	!	!	!	!
!LO:TX:b:i:t=10. Lutego 1825. R&colon;	!	!	!	!	!	!	!
2EE-/	.	2E-/	.	2e- 2G/	.	2e- 2G;/	.
==	==	==	==	==	==	==	==
*-	*-	*-	*-	*-	*-	*-	*-
!!!system-decoration: [s1,s2,s3,s4]
!!!RDF**kern: > = above
!!!RDF**kern: < = below
!!!RDF**kern: | = vertical stroke
!!!AIN: 1 alto 1 empty 2 violn
!!!ENC: Andrzej Kubiczek
!!!END: 2021-06-28
!!!ENC: Tomasz Grochalski
!!!END: 2021-06-22
